!!!!SEGMENT: pl-cz-iii-270_gotschalk-missa-pastoriria-C-01-kyrie.krn
!!!id: 18xx:119
!!!COM: Gotschalk, Filip
!!!OTL: Missa Pastoritia in C - Kyrie
!!!PDT:
!!!SMS-siglum: PL-CZ
!!!SMS-shelfmark: III-270
!!!NIFC-rismID:
!!!URL-scan: http://repozytorium.nifc.pl/skany/pl-cz-nut--iii-270
!!!ONB-nifc:
!!!ENC: Anna Matuszewska
!!!END: 2020-03-28
**kern	**fb	**dynam	**kern	**text	**kern	**text	**kern	**text	**kern	**dynam	**kern	**dynam	**kern	**dynam	**kern	**dynam	**kern	**dynam	**kern	**dynam
*part10	*	*part10	*part7	*part7	*part6	*part6	*part5	*part5	*part9	*part9	*part8	*part8	*part4	*part4	*part3	*part3	*part2	*part2	*part1	*part1
*staff10	*	*	*staff7	*staff7	*staff6	*staff6	*staff5	*staff5	*staff9	*	*staff8	*	*staff4	*	*staff3	*	*staff2	*	*staff1	*
*I"Organo	*	*	*I"Basso	*	*I"Alto	*	*I"Canto	*	*I"Violino Secondo	*	*I"Violino Primo	*	*I"Cornu Secondo in C	*	*I"Cornu Primo in C	*	*I"Clarinetto Secondo	*	*I"Clarinetto Primo	*
*I'Org	*	*	*I'B	*	*I'A	*	*I'C	*	*I'Vln II	*	*I'Vln I	*	*I'Cor II	*	*I'Cor I	*	*I'Cl II	*	*I'Cl I	*
*clefF4	*	*	*clefF4	*	*clefC3	*	*clefC1	*	*clefG2	*	*clefG2	*	*clefG2	*	*clefG2	*	*clefG2	*	*clefG2	*
*k[]	*	*	*k[]	*	*k[]	*	*k[]	*	*k[]	*	*k[]	*	*k[]	*	*k[]	*	*k[]	*	*k[]	*
*M4/4	*	*	*M4/4	*	*M4/4	*	*M4/4	*	*M4/4	*	*M4/4	*	*M4/4	*	*M4/4	*	*M4/4	*	*M4/4	*
*met(c)	*	*	*met(c)	*	*met(c)	*	*met(c)	*	*met(c)	*	*met(c)	*	*met(c)	*	*met(c)	*	*met(c)	*	*met(c)	*
=1	=1	=1	=1	=1	=1	=1	=1	=1	=1	=1	=1	=1	=1	=1	=1	=1	=1	=1	=1	=1
!LO:TX:b:t=Kyrie	!	!	!	!	!	!	!	!	!	!	!	!	!	!	!	!	!	!	!LO:TX:a:t=problem:wszystkie laseczki nut w partyturze z prawej	!
!LO:TX:a:B:t=Adagio	!	!	!	!	!	!	!	!	!LO:TX:b:t=Kyrie	!	!LO:TX:a:t=K	!	!LO:TX:b:t=Kyrie	!	!LO:TX:b:t=Kyrie	!	!LO:TX:b:t=Kyrie	!	!LO:TX:b:t=Kyrie	!
!LO:TX:a:t=Tutti	!	!	!LO:TX:a:B:t=Adagio	!	!LO:TX:a:B:t=Adagio	!	!LO:TX:a:B:t=Adagio	!	!LO:TX:a:B:t=Adagio	!	!LO:TX:a:B:t=Adagio	!	!LO:TX:a:B:t=Adagio	!	!LO:TX:a:B:t=Adagio	!	!LO:TX:a:B:t=Adagio	!	!LO:TX:a:B:t=Adagio	!
8CL	.	.	4C	Ky-	4.g	Ky-	4.ee	Ky-	4.ee	.	4.ccc	.	4.cc	.	4.ee	.	8cc	.	4.cc	.
8c	.	.	.	.	.	.	.	.	.	.	.	.	.	.	.	.	4ee	.	.	.
8G	.	.	8EL	-ri-	.	.	.	.	.	.	.	.	.	.	.	.	.	.	.	.
8EJ	.	.	8GJ	.	8g	-ri-	8ee	-ri-	8ee	.	8ccc	.	8cc	.	8ee	.	8ee	.	8cc	.
8CL	.	.	4c	-e	4g	-e	4ee	-e	4ee	.	4ccc	.	4cc	.	4ee	.	4ee	.	4cc	.
8GGJ	.	.	.	.	.	.	.	.	.	.	.	.	.	.	.	.	.	.	.	.
4CC	.	.	4r	.	8r	.	8r	.	4r	.	4r	.	4r	.	4r	.	4r	.	4r	.
!	!	!	!	!	!LO:TX:a:t=Solo	!	!LO:TX:a:t=Solo	!	!	!	!	!	!	!	!	!	!	!	!	!
.	.	.	.	.	16ccLL	e-	16ccLL	e-	.	.	.	.	.	.	.	.	.	.	.	.
.	.	.	.	.	16bJJ	.	16ddJJ	.	.	.	.	.	.	.	.	.	.	.	.	.
=2	=2	=2	=2	=2	=2	=2	=2	=2	=2	=2	=2	=2	=2	=2	=2	=2	=2	=2	=2	=2
8CL/	.	.	1r	.	8ccL	-lei-	(>8eeL	-lei-	2r	.	2r	.	1r	.	1r	.	2r	.	2r	.
8C/	4 2	.	.	.	8ddJ	.	8ffJ)	.	.	.	.	.	.	.	.	.	.	.	.	.
8C/	5 3	.	.	.	8ee	-son	8gg	-son	.	.	.	.	.	.	.	.	.	.	.	.
8cJ\	.	.	.	.	8ee	e-	8gg	e-	.	.	.	.	.	.	.	.	.	.	.	.
8GL	.	.	.	.	8dd	-lei-	8ff	-lei-	4r	.	4r	.	.	.	.	.	4r	.	4r	.
8cJ	.	.	.	.	8cc	-son	8ee	-son	.	.	.	.	.	.	.	.	.	.	.	.
4C	.	.	.	.	4r	.	4r	.	16eLL	.	16ccLL	.	.	.	.	.	8ccL	.	16eeLL	.
.	.	.	.	.	.	.	.	.	16gJJ	.	16ee	.	.	.	.	.	.	.	16ggJ	.
.	.	.	.	.	.	.	.	.	16ccLL\	.	16gg	.	.	.	.	.	8eeJ	.	8cccJ	.
.	.	.	.	.	.	.	.	.	16eeJJ	.	16cccJJ	.	.	.	.	.	.	.	.	.
=3	=3	=3	=3	=3	=3	=3	=3	=3	=3	=3	=3	=3	=3	=3	=3	=3	=3	=3	=3	=3
8GGL	.	.	4.G	Ky-	4.b	Ky-	4.dd	Ky-	4.g 4.dd/	.	4.bb	.	4.g	.	4.dd	.	8dd	.	4.bb	.
8BB	.	.	.	.	.	.	.	.	.	.	.	.	.	.	.	.	4dd	.	.	.
8D	.	.	.	.	.	.	.	.	.	.	.	.	.	.	.	.	.	.	.	.
8GJ	.	.	8G	-ri-	8b	-ri-	8dd	-ri-	8g 8dd/	.	8bb	.	8g	.	8dd	.	8dd	.	8bb	.
8GGL/	.	.	4G	-e	4b	-e	4dd	-e	4g 4dd/	.	4bb	.	4g	.	4dd	.	4dd	.	4bb	.
8GJ\	.	.	.	.	.	.	.	.	.	.	.	.	.	.	.	.	.	.	.	.
4GG	.	.	8r	.	4r	.	8r	.	4r	.	4r	.	4r	.	4r	.	4r	.	4r	.
!	!	!	!LO:TX:a:t=Solo	!	!	!	!LO:TX:a:t=Solo	!	!	!	!	!	!	!	!	!	!	!	!	!
.	.	.	16GLL	e-	.	.	16bLL	e-	.	.	.	.	.	.	.	.	.	.	.	.
.	.	.	16AJJ	.	.	.	16ccJJ	.	.	.	.	.	.	.	.	.	.	.	.	.
!	!	!	!	!	!	!	!LO:LB:g=original	!	!	!	!	!	!	!	!	!	!	!	!	!
=4	=4	=4	=4	=4	=4	=4	=4	=4	=4	=4	=4	=4	=4	=4	=4	=4	=4	=4	=4	=4
8GL	.	.	8BL	-lei-	1r	.	8ddL	-lei-	2r	.	2r	.	1r	.	1r	.	1r	.	1r	.
8G	6 4	.	8cJ	.	.	.	8eeJ	.	.	.	.	.	.	.	.	.	.	.	.	.
8G	7_	.	8d	-son	.	.	8ff	-son	.	.	.	.	.	.	.	.	.	.	.	.
8GJ	x	.	8d	e-	.	.	8ff	e-	.	.	.	.	.	.	.	.	.	.	.	.
!	!	!	!LO:LB:g=original	!	!	!	!	!	!	!	!	!	!	!	!	!	!	!	!	!
8CL	.	.	8c	-lei-	.	.	8ee	-lei-	4r	.	4r	.	.	.	.	.	.	.	.	.
8GJ	.	.	8G	-son	.	.	8dd	-son	.	.	.	.	.	.	.	.	.	.	.	.
16G'LL	.	.	4r	.	.	.	4r	.	16ggLL	.	16ggLL	.	.	.	.	.	.	.	.	.
16F'	.	.	.	.	.	.	.	.	16ff	.	16ff	.	.	.	.	.	.	.	.	.
16E'	.	.	.	.	.	.	.	.	16ee	.	16ee	.	.	.	.	.	.	.	.	.
16D'JJ	.	.	.	.	.	.	.	.	16ddJJ	.	16ddJJ	.	.	.	.	.	.	.	.	.
!	!	!	!	!	!LO:LB:g=original	!	!	!	!LO:LB:g=original	!	!LO:LB:g=original	!	!	!	!	!	!	!	!	!
=5	=5	=5	=5	=5	=5	=5	=5	=5	=5	=5	=5	=5	=5	=5	=5	=5	=5	=5	=5	=5
*	*	*	*	*	*	*	*	*	*	*	*	*	*	*	*	*	*2\right	*	*2\right	*
8CL	.	.	8C	Ky-	4.cc	Ky-	4.ee	Ky-	16ccLL	.	16eeLL	.	8cc	.	8ee	.	8ccL	.	8eeL	.
.	.	.	.	.	.	.	.	.	16ee	.	16gg	.	.	.	.	.	.	.	.	.
8E	.	.	8E	-ri-	.	.	.	.	16gg	.	16ccc	.	4cc	.	4ee	.	8ee	.	8gg	.
.	.	.	.	.	.	.	.	.	16eeJJ	.	16ggJJ	.	.	.	.	.	.	.	.	.
8G	.	.	8G	-e	.	.	.	.	16ccLL	.	16eeLL	.	.	.	.	.	8cc	.	8ee	.
.	.	.	.	.	.	.	.	.	16ee	.	16gg	.	.	.	.	.	.	.	.	.
8EJ	.	.	8c	e-	16bLL	-ri-	16ddLL	-ri-	16gg	.	16ccc	.	8cc	.	8ee	.	8eeJ	.	8ggJ	.
.	.	.	.	.	16ccJJ	.	16eeJJ	.	16eeJJ	.	16ggJJ	.	.	.	.	.	.	.	.	.
8BBL	6_ 5_	.	8BL	-lei-	4.dd	-e	4.ff	-e	16gKL 16dd	.	16ffLL	.	8dd	.	8ff	.	2dd	.	2ff	.
.	.	.	.	.	.	.	.	.	8g 8dd	.	16gg	.	.	.	.	.	.	.	.	.
8DJ	.	.	8dJ	.	.	.	.	.	.	.	16ff	.	4dd	.	4ff	.	.	.	.	.
.	.	.	.	.	.	.	.	.	8g 8dd	.	16ggJJ	.	.	.	.	.	.	.	.	.
8GL\	x	.	4G	-son	.	.	.	.	.	.	16ffLL	.	.	.	.	.	.	.	.	.
.	.	.	.	.	.	.	.	.	8g 8dd	.	16gg	.	.	.	.	.	.	.	.	.
8BBJ/	.	.	.	.	16ccLL	e-	8ff	e-	.	.	16ff	.	8dd	.	8ff	.	.	.	.	.
.	.	.	.	.	16ddJJ	.	.	.	16gJk 16dd	.	16ggJJ	.	.	.	.	.	.	.	.	.
!	!	!	!	!	!	!	!	!	!	!	!	!	!	!	!	!	!LO:LB:g=original	!	!LO:LB:g=original	!
=6	=6	=6	=6	=6	=6	=6	=6	=6	=6	=6	=6	=6	=6	=6	=6	=6	=6	=6	=6	=6
8CL	.	.	8C	Ky-	4cc	-lei-	4ee	-lei-	16ccKL	.	16eeKL	.	8cc	.	8ee	.	16ccKL	.	16eeKL	.
.	.	.	.	.	.	.	.	.	8ee	.	8ccc	.	.	.	.	.	8cc	.	8ee	.
8D	.	.	8D/	-ri-	.	.	.	.	.	.	.	.	4cc	.	4ee	.	.	.	.	.
.	.	.	.	.	.	.	.	.	8ee	.	8ccc	.	.	.	.	.	8cc	.	8ee	.
8E	6	.	8E	-e	8cc	-son	8ee	-son	.	.	.	.	.	.	.	.	.	.	.	.
.	.	.	.	.	.	.	.	.	8ee	.	8ccc	.	.	.	.	.	8cc	.	8ee	.
8F#XJ	7 5	.	8F#X	e-	8cc	e-	8ee	e-	.	.	.	.	8cc	.	8ee	.	.	.	.	.
.	.	.	.	.	.	.	.	.	16eeJk	.	16cccJk	.	.	.	.	.	16ccJk	.	16eeJk	.
8GL	6 4	.	8G	-lei-	8cc	-lei-	8ee	-lei-	8eeL	.	8cccL	.	8ccL\	.	8eeL	.	4b	.	4dd	.
8DJ	6 4	.	8G	-son	8b	-son	8dd	-son	8ddJ	.	8bbJ	.	8gJ/	.	8ddJ	.	.	.	.	.
4GG	.	.	4r	.	4r	.	4r	.	16ddLL	.	16bbLL	.	4g	.	4dd	.	16bLL	.	16ddLL	.
.	.	.	.	.	.	.	.	.	16ee	.	16ccc	.	.	.	.	.	16cc	.	16ee	.
.	.	.	.	.	.	.	.	.	16ff	.	16ddd	.	.	.	.	.	16dd	.	16ff	.
.	.	.	.	.	.	.	.	.	16ddJJ	.	16bbJJ	.	.	.	.	.	16bJJ	.	16ddJJ	.
!	!	!	!LO:LB:g=original	!	!	!	!	!	!	!	!	!	!LO:LB:g=original	!	!	!	!	!	!	!
=7	=7	=7	=7	=7	=7	=7	=7	=7	=7	=7	=7	=7	=7	=7	=7	=7	=7	=7	=7	=7
8CL	.	.	8C	Ky-	4.cc	Ky-	4.ee	Ky-	16ccLL	.	16cccLL	.	8cc	.	8ee	.	8cc	.	8ee	.
.	.	.	.	.	.	.	.	.	16ee	.	16gg	.	.	.	.	.	.	.	.	.
8E	.	.	8E/	-ri-	.	.	.	.	16gg	.	16ee	.	4cc	.	4ee	.	4ee	.	4gg	.
.	.	.	.	.	.	.	.	.	16eeJJ	.	16ggJJ	.	.	.	.	.	.	.	.	.
8G	.	.	8G	-e	.	.	.	.	16ccLL	.	16cccLL	.	.	.	.	.	.	.	.	.
.	.	.	.	.	.	.	.	.	16ee	.	16gg	.	.	.	.	.	.	.	.	.
8EJ	.	.	8c	e-	16bLL	-ri-	16ddLL	-ri-	16gg	.	16ee	.	8cc	.	8ee	.	8ee	.	8gg	.
.	.	.	.	.	16ccJJ	.	16eeJJ	.	16eeJJ	.	16ggJJ	.	.	.	.	.	.	.	.	.
!	!	!	!	!	!	!	!	!	!	!	!	!	!	!	!LO:LB:g=original	!	!	!	!	!
8BBL	6_ 5_	.	8BL	-lei-	4.dd	-e	4.ff	-e	16gKL 16dd	.	16ffLL	.	8ddL\	.	8ffL	.	2dd	.	2ff	.
.	.	.	.	.	.	.	.	.	8g 8dd	.	16gg	.	.	.	.	.	.	.	.	.
8DJ	.	.	8dJ	.	.	.	.	.	.	.	16ff	.	8gJ/	.	8dd	.	.	.	.	.
.	.	.	.	.	.	.	.	.	8g 8dd	.	16ggJJ	.	.	.	.	.	.	.	.	.
8GL\	x	.	4G	-son	.	.	.	.	.	.	16ffLL	.	8ddL\	.	8ff	.	.	.	.	.
.	.	.	.	.	.	.	.	.	8g 8dd	.	16gg	.	.	.	.	.	.	.	.	.
8BBJ/	.	.	.	.	16ccLL	e-	8ff	e-	.	.	16ff	.	8gJ/	.	8ddJ	.	.	.	.	.
.	.	.	.	.	16ddJJ	.	.	.	16gJk 16dd	.	16ggJJ	.	.	.	.	.	.	.	.	.
!LO:LB:g=original	!	!	!	!	!	!	!LO:LB:g=original	!	!LO:LB:g=original	!	!LO:LB:g=original	!	!	!	!	!	!	!	!	!
=8	=8	=8	=8	=8	=8	=8	=8	=8	=8	=8	=8	=8	=8	=8	=8	=8	=8	=8	=8	=8
8CL	.	.	8C	Ky-	4cc	-lei-	4ee	-lei-	16ccKL	.	16eeKL	.	8cc	.	8ee	.	8cc	.	8ee	.
.	.	.	.	.	.	.	.	.	8ee	.	8ccc	.	.	.	.	.	.	.	.	.
8D	.	.	8/D	-ri-	.	.	.	.	.	.	.	.	4cc	.	4ee	.	4cc	.	4ee	.
.	.	.	.	.	.	.	.	.	8ee	.	8ccc	.	.	.	.	.	.	.	.	.
8E	.	.	8E	-e	8cc	-son	8ee	-son	.	.	.	.	.	.	.	.	.	.	.	.
.	.	.	.	.	.	.	.	.	8ee	.	8ccc	.	.	.	.	.	.	.	.	.
8F#XJ	5 7	.	8F#X	e-	8cc	e-	8ee	e-	.	.	.	.	8cc	.	8ee	.	8cc	.	8ee	.
.	.	.	.	.	.	.	.	.	16eeJk	.	16cccJk	.	.	.	.	.	.	.	.	.
8GL	.	.	8G	-lei-	8cc	-lei-	8ee	-lei-	8eeL	.	8cccL	.	8ccL\	.	8eeL	.	8ccL	.	8eeL	.
8DJ	.	.	8G	-son	8b	-son	8dd	-son	8ddJ	.	8bbJ	.	8gJ/	.	8ddJ	.	8bJ	.	8ddJ	.
4GG	.	.	4r	.	4r	.	4r	.	16ddLL	.	16bbLL	.	4g	.	4dd	.	4b	.	16ddLL	.
.	.	.	.	.	.	.	.	.	16ee	.	16ccc	.	.	.	.	.	.	.	16ee	.
.	.	.	.	.	.	.	.	.	16ff	.	16ddd	.	.	.	.	.	.	.	16ff	.
.	.	.	.	.	.	.	.	.	16ddJJ	.	16bbJJ	.	.	.	.	.	.	.	16ddJJ	.
!	!	!	!	!	!LO:LB:g=original	!	!	!	!	!	!	!	!	!	!	!	!	!	!LO:LB:g=original	!
=9	=9	=9	=9	=9	=9	=9	=9	=9	=9	=9	=9	=9	=9	=9	=9	=9	=9	=9	=9	=9
4G`	.	.	4G	Ky-	4g	Ky-	4g	Ky-	4g	.	4gg	.	1r	.	1r	.	4g	.	4g	.
8A`L	.	.	8AL	-ri-	8aL	-ri-	8aL	-ri-	8aL	.	8aaL	.	.	.	.	.	8aL	.	8aL	.
8B`J	.	.	8BJ	.	8bJ	.	8bJ	.	8bJ	.	8bbJ	.	.	.	.	.	8bJ	.	8bJ	.
!	!	!	!LO:LB:g=original	!	!	!	!	!	!	!	!	!	!	!	!	!	!	!	!	!
4c`	.	.	4c	-e	4cc	-e	4cc	-e	8ccL	.	4ccc	.	.	.	.	.	4cc	.	4cc	.
.	.	.	.	.	.	.	.	.	8cc	.	.	.	.	.	.	.	.	.	.	.
8d'L	.	.	8dL	e-	8ddL	e-	8ddL	e-	8dd	.	8dddL	.	.	.	.	.	8ddL	.	8ddL	.
8e'J	.	.	8eJ	.	8eeJ	.	8eeJ	.	8eeJ	.	8eeeJ	.	.	.	.	.	8eeJ	.	8eeJ	.
!	!	!	!	!	!	!	!	!	!	!	!	!	!	!	!	!	!LO:LB:g=original	!	!	!
=10	=10	=10	=10	=10	=10	=10	=10	=10	=10	=10	=10	=10	=10	=10	=10	=10	=10	=10	=10	=10
!LO:TX:a:t=problem:niewyraźny zapis artykulacji	!	!	!	!	!	!	!	!	!	!	!	!	!	!	!	!	!	!	!	!
4d`	.	.	(>4d	-lei-	4dd	-lei-	(>4dd	-lei-	4dd	.	4ddd	.	1r	.	1r	.	4dd	.	4dd	.
4B`	.	.	4B)	.	4b	.	4b)	.	4b	.	4bb	.	.	.	.	.	4b	.	4b	.
4.G`	.	.	4.G	-son	4.g	-son	4.g/	-son	4.g	.	4.gg	.	.	.	.	.	(>4gg	.	(>4g	.
.	.	.	.	.	.	.	.	.	.	.	.	.	.	.	.	.	8gL)	.	8ggL)	.
(>16A'LL	.	.	16ALL	e-	16aLL	e-	16aLL	e-	16aLL	.	16aaLL	.	.	.	.	.	16aL	.	16aaL	.
16B'JJ)	.	.	16BJJ	.	16bJJ	.	16bJJ	.	16bJJ	.	16bbJJ	.	.	.	.	.	16bJJ	.	16bbJJ	.
=11	=11	=11	=11	=11	=11	=11	=11	=11	=11	=11	=11	=11	=11	=11	=11	=11	=11	=11	=11	=11
4.c	.	.	4.c	-lei-	4.cc	-lei-	4.cc	-lei-	4.cc	.	4ccc	.	1r	.	1r	.	4.cc	.	4.ccc	.
.	.	.	.	.	.	.	.	.	.	.	4bb	.	.	.	.	.	.	.	.	.
8B	.	.	8B	.	8b	-son	8b	-son	8b	.	.	.	.	.	.	.	8b	.	8bb	.
4A	.	.	4A	-son	4a	e-	4a	e-	4a	.	4aa	.	.	.	.	.	4a	.	4aa	.
4G	.	.	4G	e-	4g	.	4g	.	4g	.	4gg	.	.	.	.	.	4g	.	4gg	.
=12	=12	=12	=12	=12	=12	=12	=12	=12	=12	=12	=12	=12	=12	=12	=12	=12	=12	=12	=12	=12
*2\right	*	*	*2\right	*	*2\right	*	*2\right	*	*2\right	*	*2\right	*	*	*	*2\right	*	*	*	*	*
4A`	.	.	4A	-lei-	2a	-lei-	4a	-lei-	4a	.	4aa	.	4g	.	2dd	.	4dd	.	4aa	.
4D	7	.	4D/	.	.	.	4cc	.	4dd	.	4ccc	.	8gL	.	.	.	4cc	.	4ff#X	.
.	.	.	.	.	.	.	.	.	.	.	.	.	8gJ	.	.	.	.	.	.	.
2G	.	.	2G	-son	2d	-son.	2b	-son	2g 2dd	.	2dd 2bb	.	2g	.	2dd	.	2b	.	2gg	.
!LO:LB:g=original	!	!	!LO:LB:g=original	!	!LO:LB:g=original	!	!LO:LB:g=original	!	!LO:LB:g=original	!	!LO:LB:g=original	!	!	!	!	!	!LO:LB:g=original	!	!LO:LB:g=original	!
=13||	=13||	=13||	=13||	=13||	=13||	=13||	=13||	=13||	=13||	=13||	=13||	=13||	=13||	=13||	=13||	=13||	=13||	=13||	=13||	=13||
*M2/2	*	*	*M2/2	*	*M2/2	*	*M2/2	*	*M2/2	*	*M2/2	*	*M2/2	*	*M2/2	*	*M2/2	*	*M2/2	*
*met(c|)	*	*	*met(c|)	*	*met(c|)	*	*met(c|)	*	*met(c|)	*	*met(c|)	*	*met(c|)	*	*met(c|)	*	*met(c|)	*	*met(c|)	*
!LO:TX:a:t=Tutti.	!	!	!	!	!	!	!	!	!	!	!	!	!	!	!	!	!	!	!	!
!LO:TX:a:B:t=Allegro.	!	!	!LO:TX:a:t=Tutti	!	!	!	!	!	!LO:TX:b:t=Christe	!	!LO:TX:b:t=Christe	!	!	!	!	!	!LO:TX:b:t=Christe	!	!LO:TX:b:t=Christe	!
!LO:TX:b:t=Christe	!	!	!LO:TX:a:B:t=Moderato Allegro	!	!LO:TX:a:B:t=Moderato	!	!LO:TX:a:B:t=Moderato Allegro	!	!LO:TX:a:B:t=Allegro	!	!LO:TX:a:B:t=Moderato Allegro.	!	!LO:TX:a:B:t=Moderato Allegro	!	!LO:TX:a:B:t=Moderato Allegro	!	!LO:TX:a:B:t=Moderato Allegro	!	!LO:TX:a:B:t=Moderato Allegro	!
4C	.	.	2C	Chris-	2e	Chris-	4cc	Chris-	4G 4e	f	4cc	f	2c	.	2cc	.	4g	.	4cc	.
4C	.	.	.	.	.	.	8eeL	.	4G 4e	.	8eeL	.	.	.	.	.	4g	.	8eeL	.
.	.	.	.	.	.	.	8ccJ	.	.	.	8ccJ	.	.	.	.	.	.	.	8ccJ	.
4G	.	.	4G	-te	4g	-te	4b	-te	4G 4d	.	4b/	.	2g	.	2g	.	4g	.	4b/	.
4G	.	.	4G	e-	4g	e-	4g	e-	4G 4d	.	4g	.	.	.	.	.	4g	.	4g	.
=14	=14	=14	=14	=14	=14	=14	=14	=14	=14	=14	=14	=14	=14	=14	=14	=14	=14	=14	=14	=14
*	*	*	*2\right	*	*	*	*	*	*	*	*2\right	*	*	*	*	*	*	*	*	*
4C	.	.	4C	-lei-	4c	-lei-	4cc	-lei-	4G 4e	.	4cc	.	4c	.	4cc	.	4g	.	4cc	.
4C	.	.	4E	.	4e	.	4ee	.	4G 4e	.	4ee	.	4e	.	4ee	.	4g	.	4ee	.
4C	.	.	2G	-son	2g	-son	2gg	-son	4G 4e	.	2gg	.	2g	.	2gg	.	2g	.	2gg	.
4C	.	.	.	.	.	.	.	.	4G 4e	.	.	.	.	.	.	.	.	.	.	.
=15	=15	=15	=15	=15	=15	=15	=15	=15	=15	=15	=15	=15	=15	=15	=15	=15	=15	=15	=15	=15
4G	7	.	4d	Ky-	4dd	Ky-	4ff	Ky-	4G 4d	.	4ff	.	2g	.	2ff	.	2r	.	2r	.
4G	.	.	4d	-ri-	4dd	-ri-	8aaL	-ri-	4G 4d	.	8aaL	.	.	.	.	.	.	.	.	.
.	.	.	.	.	.	.	8ffJ	.	.	.	8ffJ	.	.	.	.	.	.	.	.	.
4G	5	.	4G	-e	4g	-e	4dd	-e	4G 4f	.	4dd	.	2g	.	2dd	.	4r	.	4r	.
4G	.	.	4G	e-	4g	e-	4b	e-	4G 4f	.	4b	.	.	.	.	.	4g	.	4bb	.
=16	=16	=16	=16	=16	=16	=16	=16	=16	=16	=16	=16	=16	=16	=16	=16	=16	=16	=16	=16	=16
4c'	.	.	(>4c	-lei-	4cc	-lei-	4cc	-lei-	4c	.	4cc	.	4c	.	4cc	.	4cc	.	4ccc	.
4e'	.	.	4e)	.	4ee	.	4ee	.	4e	.	4ee	.	4e	.	4ee	.	4ee	.	4eee	.
2G`	.	.	2G	-son	2g	-son	2g	-son	2G	.	2g	.	2g	.	2g	.	2g	.	2gg	.
!	!	!	!	!	!	!	!	!	!	!	!	!	!LO:LB:g=original	!	!	!	!	!	!	!
=17	=17	=17	=17	=17	=17	=17	=17	=17	=17	=17	=17	=17	=17	=17	=17	=17	=17	=17	=17	=17
!LO:TX:a:t=Solo	!	!	!	!	!	!	!	!	!	!	!	!	!	!	!	!	!	!	!	!
4C	.	p	1r	.	1r	.	1r	.	4G 4e	p	8ccL	p	1r	.	1r	.	1r	.	1r	.
.	.	.	.	.	.	.	.	.	.	.	8dd	.	.	.	.	.	.	.	.	.
4C	.	.	.	.	.	.	.	.	4G 4e	.	8ee	.	.	.	.	.	.	.	.	.
.	.	.	.	.	.	.	.	.	.	.	8ccJ	.	.	.	.	.	.	.	.	.
4G	.	.	.	.	.	.	.	.	4G 4d	.	8bL	.	.	.	.	.	.	.	.	.
.	.	.	.	.	.	.	.	.	.	.	8dd	.	.	.	.	.	.	.	.	.
4G	.	.	.	.	.	.	.	.	4G 4d	.	8b	.	.	.	.	.	.	.	.	.
.	.	.	.	.	.	.	.	.	.	.	8gJ	.	.	.	.	.	.	.	.	.
!	!	!	!	!	!	!	!	!	!	!	!LO:LB:g=original	!	!	!	!	!	!	!	!	!
=18	=18	=18	=18	=18	=18	=18	=18	=18	=18	=18	=18	=18	=18	=18	=18	=18	=18	=18	=18	=18
!LO:TX:a:t=Solo	!	!	!	!	!	!	!	!	!	!	!	!	!	!	!	!	!	!	!	!
4C	.	.	1r	.	1r	.	1r	.	4G 4e	.	8ccL	.	1r	.	1r	.	1r	.	1r	.
.	.	.	.	.	.	.	.	.	.	.	8dd	.	.	.	.	.	.	.	.	.
4C	.	.	.	.	.	.	.	.	4G 4e	.	8ee	.	.	.	.	.	.	.	.	.
.	.	.	.	.	.	.	.	.	.	.	8ffJ	.	.	.	.	.	.	.	.	.
4C	.	.	.	.	.	.	.	.	4G 4e	.	2gg	.	.	.	.	.	.	.	.	.
4C	.	.	.	.	.	.	.	.	4G 4e	.	.	.	.	.	.	.	.	.	.	.
!LO:LB:g=original	!	!	!	!	!	!	!	!	!LO:LB:g=original	!	!	!	!	!	!	!	!	!	!	!
=19	=19	=19	=19	=19	=19	=19	=19	=19	=19	=19	=19	=19	=19	=19	=19	=19	=19	=19	=19	=19
4G	7	.	1r	.	1r	.	1r	.	4G 4d	.	8ggL	.	1r	.	1r	.	1r	.	1r	.
.	.	.	.	.	.	.	.	.	.	.	8ff	.	.	.	.	.	.	.	.	.
4G	.	.	.	.	.	.	.	.	4G 4d	.	8aa	.	.	.	.	.	.	.	.	.
.	.	.	.	.	.	.	.	.	.	.	8ffJ	.	.	.	.	.	.	.	.	.
4G	5	.	.	.	.	.	.	.	4G 4f	.	8ddL	.	.	.	.	.	.	.	.	.
.	.	.	.	.	.	.	.	.	.	.	8ff	.	.	.	.	.	.	.	.	.
4G	.	.	.	.	.	.	.	.	4G 4f	.	8dd	.	.	.	.	.	.	.	.	.
.	.	.	.	.	.	.	.	.	.	.	8bJ	.	.	.	.	.	.	.	.	.
=20	=20	=20	=20	=20	=20	=20	=20	=20	=20	=20	=20	=20	=20	=20	=20	=20	=20	=20	=20	=20
8cL	.	.	1r	.	1r	.	1r	.	8cL	.	8ccL	.	1r	.	1r	.	8ccL	p	8cccL	p
8B	.	.	.	.	.	.	.	.	8B	.	8b	.	.	.	.	.	8b	.	8bb	.
8c	.	.	.	.	.	.	.	.	8c	.	8cc	.	.	.	.	.	8cc	.	8ccc	.
8eJ	.	.	.	.	.	.	.	.	8eJ	.	8eeJ	.	.	.	.	.	8eeJ	.	8eeeJ	.
2G	.	.	.	.	.	.	.	.	2G	.	2g	.	.	.	.	.	2g	.	2gg	.
!	!	!	!LO:LB:g=original	!	!	!	!LO:LB:g=original	!	!	!	!	!	!	!	!	!	!LO:LB:g=original	!	!LO:LB:g=original	!
=21	=21	=21	=21	=21	=21	=21	=21	=21	=21	=21	=21	=21	=21	=21	=21	=21	=21	=21	=21	=21
*	*	*	*	*	*	*	*	*	*	*	*	*	*2\right	*	*	*	*	*	*	*
4C	.	.	2C	Chri-	2e	Chri-	2gg	Chri-	8eeL	f	8ggL	f	2cc	.	4gg	.	1r	.	1r	.
.	.	.	.	.	.	.	.	.	8ff	.	8aa	.	.	.	.	.	.	.	.	.
4c	.	.	.	.	.	.	.	.	8ee	.	8gg	.	.	.	4ee	.	.	.	.	.
.	.	.	.	.	.	.	.	.	8ccJ	.	8eeJ	.	.	.	.	.	.	.	.	.
4c	.	.	4c	-ste	4cc	-ste	4ee	-ste	4G 4e	.	4cc	.	4cc	.	4cc	.	.	.	.	.
4c	.	.	4c	e-	4cc	e-	4cc	e-	4G 4e	.	4cc	.	4cc	.	4cc	.	.	.	.	.
!	!	!	!	!	!LO:LB:g=original	!	!	!	!	!	!	!	!	!	!	!	!	!	!	!
=22	=22	=22	=22	=22	=22	=22	=22	=22	=22	=22	=22	=22	=22	=22	=22	=22	=22	=22	=22	=22
4G	.	.	2G	-lei-	(>4b	-lei-	4dd	-lei-	8bL	.	8ddL	.	4g	.	4dd	.	1r	.	1r	.
.	.	.	.	.	.	.	.	.	8a	.	8cc	.	.	.	.	.	.	.	.	.
4G	.	.	.	.	4cc)	.	4ee	.	8b	.	8dd	.	4cc	.	4ee	.	.	.	.	.
.	.	.	.	.	.	.	.	.	8ccJ	.	8eeJ	.	.	.	.	.	.	.	.	.
4G	7	.	2G	-son	2dd	-son	2ff	-son	2dd	.	2ff	.	2dd	.	2ff	.	.	.	.	.
4G	7	.	.	.	.	.	.	.	.	.	.	.	.	.	.	.	.	.	.	.
!	!	!	!	!	!	!	!	!	!	!	!	!	!	!	!LO:LB:g=original	!	!	!	!	!
=23	=23	=23	=23	=23	=23	=23	=23	=23	=23	=23	=23	=23	=23	=23	=23	=23	=23	=23	=23	=23
4GG	7	.	2G	Chri-	2dd	Chri-	2ff	Chri-	4dd	.	8ffL	.	2g	.	4ff	.	1r	.	1r	.
.	.	.	.	.	.	.	.	.	.	.	8gg	.	.	.	.	.	.	.	.	.
4G	.	.	.	.	.	.	.	.	4G 4f	.	8ff	.	.	.	4dd	.	.	.	.	.
.	.	.	.	.	.	.	.	.	.	.	8ddJ	.	.	.	.	.	.	.	.	.
4G	5	.	4G	-ste	4g	-ste	4dd	-ste	4G 4d	.	4b	.	4g	.	4g	.	.	.	.	.
4G	.	.	4G	e-	4g	e-	4b	e-	4G 4d	.	4b	.	4g	.	4g	.	.	.	.	.
!	!	!	!	!	!	!	!	!	!	!	!LO:LB:g=original	!	!	!	!	!	!	!	!	!
=24	=24	=24	=24	=24	=24	=24	=24	=24	=24	=24	=24	=24	=24	=24	=24	=24	=24	=24	=24	=24
4c	.	.	4c	-lei-	4e	-lei-	4cc	-lei-	8eL	.	8ccL	.	4e	.	4cc	.	1r	.	1r	.
.	.	.	.	.	.	.	.	.	8d	.	8b	.	.	.	.	.	.	.	.	.
4G	.	.	4G	.	4g	.	4dd	.	8e	.	8cc	.	4g	.	4dd	.	.	.	.	.
.	.	.	.	.	.	.	.	.	8fJ	.	8ddJ	.	.	.	.	.	.	.	.	.
8r	.	.	2C	-son	2cc	-son	2ee	-son	2G 2g	.	2ee	.	2cc	.	2ee	.	.	.	.	.
8CL	.	.	.	.	.	.	.	.	.	.	.	.	.	.	.	.	.	.	.	.
8E	.	.	.	.	.	.	.	.	.	.	.	.	.	.	.	.	.	.	.	.
8GJ	.	.	.	.	.	.	.	.	.	.	.	.	.	.	.	.	.	.	.	.
=25	=25	=25	=25	=25	=25	=25	=25	=25	=25	=25	=25	=25	=25	=25	=25	=25	=25	=25	=25	=25
!LO:TX:a:t=Solo	!	!	!	!	!	!	!	!	!	!	!	!	!	!	!	!	!	!	!	!
4c	.	p	4C	Ky-	4e	Ky-	4gg	Ky-	8eeL	p	8ggL	p	1r	.	1r	.	8eeL	.	8ggL	p
.	.	.	.	.	.	.	.	.	8ff	.	8aa	.	.	.	.	.	8ff	.	8aa	.
4c	.	.	4C	-ri-	4e	-ri-	4gg	-ri-	8ee	.	8gg	.	.	.	.	.	8ee	.	8gg	.
.	.	.	.	.	.	.	.	.	8ccJ	.	8ffJ	.	.	.	.	.	8ddJ	.	8ffJ	.
.	.	.	.	.	.	.	.	.	.	.	.	.	.	.	.	.	.	.	8qqff/	.
4c	.	.	4C	-e	4cc	-e	4ee	-e	4G 4e	.	8ffL	.	.	.	.	.	4cc	.	4ee	.
.	.	.	.	.	.	.	.	.	.	.	8ee	.	.	.	.	.	.	.	.	.
4c	.	.	4C	e-	4cc	e-	4cc	e-	4G 4e	.	8dd	.	.	.	.	.	4g	.	8ddL	.
.	.	.	.	.	.	.	.	.	.	.	8ccJ	.	.	.	.	.	.	.	8ccJ	.
!LO:LB:g=original	!	!	!	!	!	!	!	!	!LO:LB:g=original	!	!	!	!	!	!	!	!	!	!	!
=26	=26	=26	=26	=26	=26	=26	=26	=26	=26	=26	=26	=26	=26	=26	=26	=26	=26	=26	=26	=26
4G	.	.	2G	-lei-	4b	-lei-	4dd	-lei-	8gL	.	8ddL	.	1r	.	1r	.	4g	.	4dd	.
.	.	.	.	.	.	.	.	.	8a	.	8cc	.	.	.	.	.	.	.	.	.
4G	.	.	.	.	4cc	.	4ee	.	8b	.	8dd	.	.	.	.	.	8bL	.	8ddL	.
.	.	.	.	.	.	.	.	.	8ccJ	.	8eeJ	.	.	.	.	.	8ccJ	.	8eeJ	.
4G	7	.	2G	-son	2dd	-son	2ff	-son	2dd	.	2ff	.	.	.	.	.	2dd	.	2ff	.
4G	.	.	.	.	.	.	.	.	.	.	.	.	.	.	.	.	.	.	.	.
!	!	!	!LO:LB:g=original	!	!	!	!LO:LB:g=original	!	!	!	!	!	!	!	!	!	!	!	!	!
=27	=27	=27	=27	=27	=27	=27	=27	=27	=27	=27	=27	=27	=27	=27	=27	=27	=27	=27	=27	=27
4GG	7	.	4G	Ky-	4dd	Ky-	4ff	Ky-	4d 4b	.	8ffL	.	1r	.	1r	.	4dd	.	8ffL	.
.	.	.	.	.	.	.	.	.	.	.	8gg	.	.	.	.	.	.	.	8gg	.
4G	.	.	4G	-ri-	4dd	-ri-	4ff	-ri-	4d 4b	.	8ff	.	.	.	.	.	8bL	.	8ff	.
.	.	.	.	.	.	.	.	.	.	.	8eeJ	.	.	.	.	.	8gJ	.	8eeJ	.
.	.	.	.	.	.	.	.	.	.	.	.	.	.	.	.	.	.	.	8qqee/	.
!	!	!	!	!	!LO:LB:g=original	!	!	!	!	!	!	!	!	!	!	!	!	!	!	!
4G	5	.	4G	-e	4g	-e	4dd	-e	4d 4b	.	8eeL	.	.	.	.	.	4f	.	4dd	.
.	.	.	.	.	.	.	.	.	.	.	8dd	.	.	.	.	.	.	.	.	.
4G	.	.	4G	e-	4g	e-	4b	e-	4d 4b	.	8cc	.	.	.	.	.	4g	.	8ccL	.
.	.	.	.	.	.	.	.	.	.	.	8bJ	.	.	.	.	.	.	.	8bJ	.
=28	=28	=28	=28	=28	=28	=28	=28	=28	=28	=28	=28	=28	=28	=28	=28	=28	=28	=28	=28	=28
!LO:TX:a:t=Tutti	!	!	!	!	!	!	!	!	!	!	!	!	!	!	!	!	!	!	!	!
4C	.	.	2c	-lei-	4e	-lei-	4cc	-lei-	8eL	.	8ccL	.	1r	.	1r	.	4e	.	4cc	.
.	.	.	.	.	.	.	.	.	8d	.	8b	.	.	.	.	.	.	.	.	.
4G	.	.	.	.	4g	.	4dd	.	8e	.	8cc	.	.	.	.	.	8eL	.	8ccL	.
.	.	.	.	.	.	.	.	.	8fJ	.	8ddJ	.	.	.	.	.	8gJ	.	8ddJ	.
4c	.	.	2C	-son	2cc	-son	2ee	-son	2G 2g	.	2ee	.	.	.	.	.	2cc	.	2ee	.
4C	.	.	.	.	.	.	.	.	.	.	.	.	.	.	.	.	.	.	.	.
=29	=29	=29	=29	=29	=29	=29	=29	=29	=29	=29	=29	=29	=29	=29	=29	=29	=29	=29	=29	=29
!LO:TX:a:t=Tutti	!	!	!	!	!	!	!	!	!	!	!	!	!	!	!	!	!	!	!	!
8C'L	.	.	1r	.	1r	.	1r	.	8cL	f	8ccL	f	4c	.	4cc	.	8cL	f	8ccL	f
8D'	.	.	.	.	.	.	.	.	8d	.	8dd	.	.	.	.	.	8d	.	8dd	.
8E'	.	.	.	.	.	.	.	.	8e	.	8ee	.	4e	.	4ee	.	8e	.	8ee	.
8F#X'J	.	.	.	.	.	.	.	.	8fJ	.	8ffJ	.	.	.	.	.	8fJ	.	8ffJ	.
4G'	.	.	.	.	.	.	.	.	4g`	.	4gg	.	4g	.	4gg	.	4g	.	4gg	.
8A'L	.	.	.	.	.	.	.	.	8a`L	.	8aaL	.	4r	.	4r	.	8aL	.	8aaL	.
8B'J	.	.	.	.	.	.	.	.	8b`J	.	8bbJ	.	.	.	.	.	8bJ	.	8bbJ	.
!	!	!	!	!	!	!	!	!	!	!	!LO:LB:g=original	!	!	!	!	!	!	!	!LO:LB:g=original	!
=30	=30	=30	=30	=30	=30	=30	=30	=30	=30	=30	=30	=30	=30	=30	=30	=30	=30	=30	=30	=30
!	!	!	!	!	!	!	!	!	!	!	!LO:TX:a:t=problem:brak oznaczenia grupy niemiarowej	!	!	!	!	!	!	!	!	!
4c`	.	.	1r	.	1r	.	1r	.	4cc`	.	12cccL	.	4c	.	4cc	.	4cc	.	4ccc	.
.	.	.	.	.	.	.	.	.	.	.	12ddd	.	.	.	.	.	.	.	.	.
.	.	.	.	.	.	.	.	.	.	.	12cccJ	.	.	.	.	.	.	.	.	.
!	!	!	!	!	!	!	!	!	!	!	!LO:TX:a:t=problem:brak oznaczenia grupy niemiarowej	!	!	!	!	!	!	!	!	!
4B`	.	.	.	.	.	.	.	.	4b`	.	12bbL	.	4r	.	4r	.	4b	.	4bb	.
.	.	.	.	.	.	.	.	.	.	.	12ccc	.	.	.	.	.	.	.	.	.
.	.	.	.	.	.	.	.	.	.	.	12bbJ	.	.	.	.	.	.	.	.	.
!	!	!	!	!	!	!	!	!	!	!	!LO:TX:a:t=problem:brak oznaczenia grupy niemiarowej	!	!	!	!	!	!	!	!	!
4A'	.	.	.	.	.	.	.	.	4a`\	.	12aaL	.	2r	.	2r	.	4a	.	4aa	.
.	.	.	.	.	.	.	.	.	.	.	12bb	.	.	.	.	.	.	.	.	.
.	.	.	.	.	.	.	.	.	.	.	12aaJ	.	.	.	.	.	.	.	.	.
!	!	!	!	!	!	!	!	!	!	!	!LO:TX:a:t=problem:brak oznaczenia grupy niemiarowej	!	!	!	!	!	!	!	!	!
4G'	.	.	.	.	.	.	.	.	4g`\	.	12ggL	.	.	.	.	.	4g	.	4gg	.
.	.	.	.	.	.	.	.	.	.	.	12aa	.	.	.	.	.	.	.	.	.
.	.	.	.	.	.	.	.	.	.	.	12ggJ	.	.	.	.	.	.	.	.	.
!	!	!	!	!	!	!	!	!	!	!	!	!	!	!	!	!	!LO:LB:g=original	!	!	!
=31	=31	=31	=31	=31	=31	=31	=31	=31	=31	=31	=31	=31	=31	=31	=31	=31	=31	=31	=31	=31
!	!	!	!	!	!	!	!	!	!	!	!LO:TX:a:t=problem:brak oznaczenia grupy niemiarowej	!	!	!	!	!	!	!	!	!
4F#X`	.	.	1r	.	1r	.	1r	.	4f#X`	.	12ff#XL	.	1r	.	1r	.	4f#X	.	4ff#X	.
.	.	.	.	.	.	.	.	.	.	.	12gg	.	.	.	.	.	.	.	.	.
.	.	.	.	.	.	.	.	.	.	.	12ff#J	.	.	.	.	.	.	.	.	.
!	!	!	!	!	!	!	!	!	!	!	!LO:TX:a:t=problem:brak oznaczenia grupy niemiarowej	!	!	!	!	!	!	!	!	!
4E`	.	.	.	.	.	.	.	.	4e`	.	12eeL	.	.	.	.	.	4e	.	4ee	.
.	.	.	.	.	.	.	.	.	.	.	12ff#	.	.	.	.	.	.	.	.	.
.	.	.	.	.	.	.	.	.	.	.	12eeJ	.	.	.	.	.	.	.	.	.
!	!	!	!	!	!	!	!	!	!	!	!LO:TX:a:t=problem:brak oznaczenia grupy niemiarowej	!	!	!	!	!	!	!	!	!
4D`	.	.	.	.	.	.	.	.	4d`	.	12ddL	.	.	.	.	.	4d	.	4dd	.
.	.	.	.	.	.	.	.	.	.	.	12ee	.	.	.	.	.	.	.	.	.
.	.	.	.	.	.	.	.	.	.	.	12ddJ	.	.	.	.	.	.	.	.	.
!	!	!	!	!	!	!	!	!	!	!	!LO:TX:a:t=problem:brak oznaczenia grupy niemiarowej	!	!	!	!	!	!	!	!	!
4C`\	.	.	.	.	.	.	.	.	4c`	.	12ccL	.	.	.	.	.	4r	.	4r	.
.	.	.	.	.	.	.	.	.	.	.	12dd	.	.	.	.	.	.	.	.	.
.	.	.	.	.	.	.	.	.	.	.	12ccJ	.	.	.	.	.	.	.	.	.
!LO:LB:g=original	!	!	!	!	!	!	!	!	!	!	!	!	!	!	!	!	!	!	!	!
=32	=32	=32	=32	=32	=32	=32	=32	=32	=32	=32	=32	=32	=32	=32	=32	=32	=32	=32	=32	=32
4BB	.	.	1r	.	1r	.	1r	.	4B	.	4b	.	1r	.	1r	.	4b	.	4bb	.
8DL	.	.	.	.	.	.	.	.	8dL	.	8ddL	.	.	.	.	.	8ddL	.	8dddL	.
8BBJ	.	.	.	.	.	.	.	.	8BJ	.	8bJ	.	.	.	.	.	8bJ	.	8bbJ	.
2GG	.	.	.	.	.	.	.	.	2G	.	2g	.	.	.	.	.	2g	.	2gg	.
!	!	!	!	!	!	!	!	!	!LO:LB:g=original	!	!	!	!	!	!	!	!	!	!	!
=33	=33	=33	=33	=33	=33	=33	=33	=33	=33	=33	=33	=33	=33	=33	=33	=33	=33	=33	=33	=33
!LO:TX:a:t=Solo	!	!	!	!	!	!	!LO:TX:a:t=Solo	!	!	!	!	!	!	!	!	!	!	!	!	!
4GG	.	.	2G	Chri-	2b	Chri-	2dd	Chri-	8gL	p	8bL	p	1r	.	1r	.	1r	.	1r	.
.	.	.	.	.	.	.	.	.	8a	.	8cc	.	.	.	.	.	.	.	.	.
4G	.	p	.	.	.	.	.	.	8b	.	8dd	.	.	.	.	.	.	.	.	.
.	.	.	.	.	.	.	.	.	8ccJ	.	8eeJ	.	.	.	.	.	.	.	.	.
4GG	.	.	4G	-ste	4b	-ste	4dd	-ste	4d 4b	.	4dd	.	.	.	.	.	.	.	.	.
4G	.	.	4G	e-	4b	e-	4dd	e-	4d 4b	.	4dd	.	.	.	.	.	.	.	.	.
!	!	!	!	!	!	!	!	!	!	!	!LO:LB:g=original	!	!	!	!	!	!	!	!	!
=34	=34	=34	=34	=34	=34	=34	=34	=34	=34	=34	=34	=34	=34	=34	=34	=34	=34	=34	=34	=34
4GG	.	.	2G	-lei-	2b	-lei-	2gg	-lei-	4d 4b	.	8ggL	.	1r	.	1r	.	1r	.	1r	.
.	.	.	.	.	.	.	.	.	.	.	8ff#X	.	.	.	.	.	.	.	.	.
4G	.	.	.	.	.	.	.	.	4d 4b	.	8gg	.	.	.	.	.	.	.	.	.
.	.	.	.	.	.	.	.	.	.	.	8bbJ	.	.	.	.	.	.	.	.	.
4G	.	.	2G	-son	2b	-son	2dd	-son	4d 4b	.	2dd	.	.	.	.	.	.	.	.	.
4G	.	.	.	.	.	.	.	.	4d 4b	.	.	.	.	.	.	.	.	.	.	.
=35	=35	=35	=35	=35	=35	=35	=35	=35	=35	=35	=35	=35	=35	=35	=35	=35	=35	=35	=35	=35
!!pagebreak:original
4G	.	.	1r	.	1r	.	1r	.	4e 4cc	.	4ee	.	1r	.	1r	.	1r	.	1r	.
4G	.	.	.	.	.	.	.	.	4e 4cc	.	4ee	.	.	.	.	.	.	.	.	.
4G	.	.	.	.	.	.	.	.	(>8eeL	.	8ggL	.	.	.	.	.	.	.	.	.
.	.	.	.	.	.	.	.	.	8dd	.	8ff#X	.	.	.	.	.	.	.	.	.
4G	.	.	.	.	.	.	.	.	8cc	.	8ee	.	.	.	.	.	.	.	.	.
.	.	.	.	.	.	.	.	.	8bJ)	.	8ddJ	.	.	.	.	.	.	.	.	.
=36	=36	=36	=36	=36	=36	=36	=36	=36	=36	=36	=36	=36	=36	=36	=36	=36	=36	=36	=36	=36
4GG	.	.	1r	.	1r	.	1r	.	(>8bL	.	8ddL	.	1r	.	1r	.	1r	.	1r	.
.	.	.	.	.	.	.	.	.	8cc	.	8ee	.	.	.	.	.	.	.	.	.
4G	.	.	.	.	.	.	.	.	8b	.	8dd	.	.	.	.	.	.	.	.	.
.	.	.	.	.	.	.	.	.	8aJ)	.	8ccJ	.	.	.	.	.	.	.	.	.
4GG	.	.	.	.	.	.	.	.	2g	.	2b	.	.	.	.	.	.	.	.	.
4G	.	.	.	.	.	.	.	.	.	.	.	.	.	.	.	.	.	.	.	.
=37	=37	=37	=37	=37	=37	=37	=37	=37	=37	=37	=37	=37	=37	=37	=37	=37	=37	=37	=37	=37
4G	.	.	4G	Ky-	8gL	Ky-	8bL	Ky-	(<8gL	.	8bL	.	1r	.	1r	.	1r	.	1r	.
.	.	.	.	.	8aJ	.	8ccJ	.	8a	.	8cc	.	.	.	.	.	.	.	.	.
4G	.	.	4G	-ri-	8bL	-ri-	8ddL	-ri-	8b	.	8dd	.	.	.	.	.	.	.	.	.
.	.	.	.	.	8ccJ	.	8eeJ	.	8ccJ)	.	8eeJ	.	.	.	.	.	.	.	.	.
!	!	!	!	!	!	!	!LO:LB:g=original	!	!	!	!	!	!	!	!	!	!	!	!	!
4G	.	.	4G	-e	4b	-e	4dd	-e	4d 4b	.	8ddL	.	.	.	.	.	.	.	.	.
.	.	.	.	.	.	.	.	.	.	.	8cc	.	.	.	.	.	.	.	.	.
4G	.	.	4G	e-	4b	e-	4dd	e-	4d 4b	.	8dd	.	.	.	.	.	.	.	.	.
.	.	.	.	.	.	.	.	.	.	.	8bJ	.	.	.	.	.	.	.	.	.
!	!	!	!LO:LB:g=original	!	!LO:LB:g=original	!	!	!	!	!	!	!	!	!	!	!	!	!	!	!
=38	=38	=38	=38	=38	=38	=38	=38	=38	=38	=38	=38	=38	=38	=38	=38	=38	=38	=38	=38	=38
4G	.	.	2G	-lei-	2b	-lei-	2gg	-lei-	4d 4b	.	4gg	.	1r	.	1r	.	1r	.	1r	.
4G	.	.	.	.	.	.	.	.	4d 4b	.	8ggL	.	.	.	.	.	.	.	.	.
.	.	.	.	.	.	.	.	.	.	.	8bbJ	.	.	.	.	.	.	.	.	.
4GG	.	.	2G	-son	2b	-son	2dd	-son	4d 4b	.	2dd	.	.	.	.	.	.	.	.	.
4G	.	.	.	.	.	.	.	.	4d 4b	.	.	.	.	.	.	.	.	.	.	.
!LO:LB:g=original	!	!	!	!	!	!	!	!	!LO:LB:g=original	!	!	!	!	!	!	!	!	!	!	!
=39	=39	=39	=39	=39	=39	=39	=39	=39	=39	=39	=39	=39	=39	=39	=39	=39	=39	=39	=39	=39
4c	.	.	2c	Chri-	2g	Chri-	2ee	Chri-	4cc	.	4ee	.	1r	.	1r	.	1r	.	1r	.
4c	.	.	.	.	.	.	.	.	8eeL	.	8cccL	.	.	.	.	.	.	.	.	.
.	.	.	.	.	.	.	.	.	8ccJ	.	8aaJ	.	.	.	.	.	.	.	.	.
4d	5 4	.	4d	-ste	4g	-ste	4b	-ste	(>8bL	.	8ggL	.	.	.	.	.	.	.	.	.
.	.	.	.	.	.	.	.	.	8cc)	.	8aa	.	.	.	.	.	.	.	.	.
4D	#	.	4D/	e-	4f#X	e-	4a	e-	(>8a	.	8ff#X	.	.	.	.	.	.	.	.	.
.	.	.	.	.	.	.	.	.	8ccJ)	.	8aaJ	.	.	.	.	.	.	.	.	.
!	!	!	!	!	!	!	!	!	!LO:LB:g=original	!	!LO:LB:g=original	!	!	!	!	!	!	!	!	!
=40	=40	=40	=40	=40	=40	=40	=40	=40	=40	=40	=40	=40	=40	=40	=40	=40	=40	=40	=40	=40
4G	.	.	2G	-lei-	2d	-lei-	2cc	-lei-	(>8ccL	.	2aa	.	1r	.	1r	.	1r	.	1r	.
.	.	.	.	.	.	.	.	.	8dd)	.	.	.	.	.	.	.	.	.	.	.
4D	.	.	.	.	.	.	.	.	(>8cc	.	.	.	.	.	.	.	.	.	.	.
.	.	.	.	.	.	.	.	.	8ddJ)	.	.	.	.	.	.	.	.	.	.	.
4BB	.	.	2G	-son	2d	-son	2b	-son	4d 4b	.	2gg	.	.	.	.	.	.	.	.	.
4D	.	.	.	.	.	.	.	.	4d 4b	.	.	.	.	.	.	.	.	.	.	.
=41	=41	=41	=41	=41	=41	=41	=41	=41	=41	=41	=41	=41	=41	=41	=41	=41	=41	=41	=41	=41
4GG	.	p	2G	Chri-	2b	Chri-	2dd	Chri-	8gL	p	8bL	p	1r	.	1r	.	8gL	p	(>8bL	p
.	.	.	.	.	.	.	.	.	8a	.	8cc	.	.	.	.	.	8a	.	8cc)	.
4G	.	.	.	.	.	.	.	.	8b	.	8dd	.	.	.	.	.	8b	.	(>8dd	.
.	.	.	.	.	.	.	.	.	8ccJ	.	8eeJ	.	.	.	.	.	8ccJ	.	8eeJ)	.
4GG	.	.	4G	-ste	4b	-ste	4dd	-ste	4d 4b	.	4dd	.	.	.	.	.	4b/	.	4dd	.
4G	.	.	4G	e-	4b	e-	4dd	e-	4d 4b	.	4dd	.	.	.	.	.	4b/	.	4dd	.
=42	=42	=42	=42	=42	=42	=42	=42	=42	=42	=42	=42	=42	=42	=42	=42	=42	=42	=42	=42	=42
4GG	.	.	2G	-lei-	2b	-lei-	2gg	-lei-	4d 4b	.	8ggL	.	1r	.	1r	.	4b/	.	(>8ggL	.
.	.	.	.	.	.	.	.	.	.	.	8ff#X	.	.	.	.	.	.	.	8ff#X	.
4G	.	.	.	.	.	.	.	.	4d 4b	.	8gg	.	.	.	.	.	4b/	.	8gg	.
.	.	.	.	.	.	.	.	.	.	.	8bbJ	.	.	.	.	.	.	.	8bbJ)	.
4G	.	.	2G	-son	2b	-son	2dd	-son	4d 4b	.	2dd	.	.	.	.	.	2b/	.	2dd	.
4G	.	.	.	.	.	.	.	.	4d 4b	.	.	.	.	.	.	.	.	.	.	.
=43	=43	=43	=43	=43	=43	=43	=43	=43	=43	=43	=43	=43	=43	=43	=43	=43	=43	=43	=43	=43
4G	.	.	1r	.	1r	.	1r	.	4e 4cc	.	4ee	.	1r	.	1r	.	4cc	.	4ee	.
4G	.	.	.	.	.	.	.	.	4e 4cc	.	4ee	.	.	.	.	.	4cc	.	4ee	.
!	!	!	!	!	!	!	!	!	!	!	!	!	!	!	!	!	!	!	!LO:LB:g=original	!
4G	.	.	.	.	.	.	.	.	(>8eeL	.	8ggL	.	.	.	.	.	8eeL	.	8ggL	.
.	.	.	.	.	.	.	.	.	8dd	.	8ff#X	.	.	.	.	.	8dd	.	8ff#X	.
4G	.	.	.	.	.	.	.	.	8cc	.	8ee	.	.	.	.	.	8cc	.	8ee	.
.	.	.	.	.	.	.	.	.	8bJ)	.	8ddJ	.	.	.	.	.	8bJ	.	8ddJ	.
=44	=44	=44	=44	=44	=44	=44	=44	=44	=44	=44	=44	=44	=44	=44	=44	=44	=44	=44	=44	=44
4GG	.	.	1r	.	1r	.	1r	.	(>8bL	.	8ddL	.	1r	.	1r	.	8bL	.	8ddL	.
.	.	.	.	.	.	.	.	.	8cc	.	8ee	.	.	.	.	.	8cc	.	8ee	.
4G	.	.	.	.	.	.	.	.	8b	.	8dd	.	.	.	.	.	8b	.	8dd	.
.	.	.	.	.	.	.	.	.	8aJ)	.	8ccJ	.	.	.	.	.	8aJ	.	8ccJ	.
!	!	!	!	!	!	!	!	!	!	!	!	!	!	!	!	!	!LO:LB:g=original	!	!	!
4GG	.	.	.	.	.	.	.	.	2g	.	2b	.	.	.	.	.	2g	.	2b	.
4G	.	.	.	.	.	.	.	.	.	.	.	.	.	.	.	.	.	.	.	.
!	!	!	!LO:LB:g=original	!	!	!	!LO:LB:g=original	!	!	!	!	!	!	!	!	!	!	!	!	!
=45	=45	=45	=45	=45	=45	=45	=45	=45	=45	=45	=45	=45	=45	=45	=45	=45	=45	=45	=45	=45
4G	.	.	4G	Ky-	8gL	Ky-	8bL	Ky-	(<8gL	.	8bL	.	1r	.	1r	.	8gL	.	8bL	.
.	.	.	.	.	8aJ	.	8ccJ	.	8a	.	8cc	.	.	.	.	.	8a	.	8cc	.
4G	.	.	4G	-ri-	8bL	-ri-	8ddL	-ri-	8b	.	8dd	.	.	.	.	.	8b	.	8dd	.
.	.	.	.	.	8ccJ	.	8eeJ	.	8ccJ)	.	8eeJ	.	.	.	.	.	8ccJ	.	8eeJ	.
4G	.	.	4G	-e	4b	-e	4dd	-e	4d 4b	.	8ddL	.	.	.	.	.	4b/	.	8ddL	.
.	.	.	.	.	.	.	.	.	.	.	8cc	.	.	.	.	.	.	.	8cc	.
4G	.	.	4G	e-	4b	e-	4dd	e-	4d 4b	.	8dd	.	.	.	.	.	4g	.	8dd	.
.	.	.	.	.	.	.	.	.	.	.	8bJ	.	.	.	.	.	.	.	8bJ	.
!LO:LB:g=original	!	!	!	!	!LO:LB:g=original	!	!	!	!	!	!	!	!	!	!	!	!	!	!	!
=46	=46	=46	=46	=46	=46	=46	=46	=46	=46	=46	=46	=46	=46	=46	=46	=46	=46	=46	=46	=46
4G	.	.	2G	-lei-	2b	-lei-	2gg	-lei-	4d 4b	.	4gg	.	1r	.	1r	.	4b/	.	4gg	.
4G	.	.	.	.	.	.	.	.	4d 4b	.	8ggL	.	.	.	.	.	4b/	.	8ggL	.
.	.	.	.	.	.	.	.	.	.	.	8bbJ	.	.	.	.	.	.	.	8bbJ	.
4GG	.	.	2G	-son	2b	-son	2dd	-son	4d 4b	.	2dd	.	.	.	.	.	2b/	.	2dd	.
4G	.	.	.	.	.	.	.	.	4d 4b	.	.	.	.	.	.	.	.	.	.	.
!	!	!	!	!	!	!	!	!	!LO:LB:g=original	!	!LO:LB:g=original	!	!	!	!	!	!	!	!	!
=47	=47	=47	=47	=47	=47	=47	=47	=47	=47	=47	=47	=47	=47	=47	=47	=47	=47	=47	=47	=47
4c	.	.	2c	Chri-	2g	Chri-	2ee	Chri-	4cc	.	4ee	.	1r	.	1r	.	2cc	.	4ee	.
4c	.	.	.	.	.	.	.	.	8eeL	.	8cccL	.	.	.	.	.	.	.	8cccL	.
.	.	.	.	.	.	.	.	.	8ccJ	.	8aaJ	.	.	.	.	.	.	.	8aaJ	.
4d	6 4	.	4d	-ste	4g	-ste	4b	-ste	(>8bL	.	8ggL	.	.	.	.	.	8bL	.	8ggL	.
.	.	.	.	.	.	.	.	.	8cc)	.	8aa	.	.	.	.	.	8cc	.	8aa	.
4D	#	.	4D/	e-	4f#X	e-	4a	e-	(>8a	.	8ff#X	.	.	.	.	.	8a	.	8ff#X	.
.	.	.	.	.	.	.	.	.	8ccJ)	.	8aaJ	.	.	.	.	.	8ccJ	.	8aaJ	.
=48	=48	=48	=48	=48	=48	=48	=48	=48	=48	=48	=48	=48	=48	=48	=48	=48	=48	=48	=48	=48
!	!	!	!	!	!	!	!	!	!	!	!	!	!LO:TX:a:t=problem:brakujący pusty takt	!	!	!	!	!	!	!
4G'	.	.	2G	-lei-	2d	-lei-	2cc	-lei-	(>8ccL	.	2aa	.	1ryy	.	1r	.	(>2cc	.	(>2aa	.
.	.	.	.	.	.	.	.	.	8dd)	.	.	.	.	.	.	.	.	.	.	.
4D'	.	.	.	.	.	.	.	.	(>8cc	.	.	.	.	.	.	.	.	.	.	.
.	.	.	.	.	.	.	.	.	8ddJ)	.	.	.	.	.	.	.	.	.	.	.
4BB	.	.	2G	-son	2d	-son	2b	-son	4d 4b	.	2gg	.	.	.	.	.	4b)	.	4gg)	.
4D	.	.	.	.	.	.	.	.	4d 4b	.	.	.	.	.	.	.	4r	.	4r	.
!	!	!	!	!	!	!	!	!	!	!	!	!	!	!	!	!	!	!	!LO:LB:g=original	!
=49	=49	=49	=49	=49	=49	=49	=49	=49	=49	=49	=49	=49	=49	=49	=49	=49	=49	=49	=49	=49
!LO:TX:a:t=Tutti	!	!	!	!	!	!	!	!	!	!	!	!	!	!	!	!	!	!	!	!
4G	.	.	4G	Ky-	4b	Ky-	4dd	Ky-	4d 4b	f	8ddL	f	2g	f	2g	f	1r	.	1r	.
.	.	.	.	.	.	.	.	.	.	.	8gg	.	.	.	.	.	.	.	.	.
4G	.	.	4G	-ri-	4b	-ri-	4dd	-ri-	4d 4b	.	8bb	.	.	.	.	.	.	.	.	.
.	.	.	.	.	.	.	.	.	.	.	8ggJ	.	.	.	.	.	.	.	.	.
4A	6|	.	4A	-e	4cc	-e	4dd	-e	4d 4a	.	8ff#XL	.	2dd	.	2dd	.	.	.	.	.
.	.	.	.	.	.	.	.	.	.	.	8aaJ	.	.	.	.	.	.	.	.	.
4A	.	.	4A	e-	4cc	e-	4dd	e-	4d 4a	.	4dd	.	.	.	.	.	.	.	.	.
!	!	!	!LO:LB:g=original	!	!	!	!	!	!	!	!	!	!	!	!	!	!	!	!	!
=50	=50	=50	=50	=50	=50	=50	=50	=50	=50	=50	=50	=50	=50	=50	=50	=50	=50	=50	=50	=50
4G	.	.	4G	-lei-	4g	-lei-	4g	-lei-	4d 4b	.	4gg	.	2g	.	2g	.	4g	f	4gg	f
4G	.	.	4B	.	4b	.	4b	.	4d 4b	.	4bb	.	.	.	.	.	4b/	.	4bb	.
4GG	.	.	2d	-son	2dd	-son	2dd	-son	4d 4b	.	2ddd	.	2r	.	2r	.	2dd	.	2ddd	.
4G	.	.	.	.	.	.	.	.	4d 4b	.	.	.	.	.	.	.	.	.	.	.
!	!	!	!	!	!	!	!	!	!	!	!	!	!	!	!	!	!LO:LB:g=original	!	!	!
=51	=51	=51	=51	=51	=51	=51	=51	=51	=51	=51	=51	=51	=51	=51	=51	=51	=51	=51	=51	=51
4d	#	.	2D/	Chri-	2a	Chri-	2cc	Chri-	4d 4a	.	8dddL	.	1r	.	1r	.	1r	.	1r	.
.	.	.	.	.	.	.	.	.	.	.	8ccc	.	.	.	.	.	.	.	.	.
4d	.	.	.	.	.	.	.	.	4d 4a	.	8bb	.	.	.	.	.	.	.	.	.
.	.	.	.	.	.	.	.	.	.	.	8cccJ	.	.	.	.	.	.	.	.	.
!	!	!	!	!	!	!	!LO:LB:g=original	!	!	!	!	!	!	!	!	!	!	!	!	!
4D/	.	.	4d	-ste	4g	-ste	4a	-ste	4d 4cc	.	8aaL	.	.	.	.	.	.	.	.	.
.	.	.	.	.	.	.	.	.	.	.	8ccc	.	.	.	.	.	.	.	.	.
4D/	.	.	4D/	e-	4f#X	e-	4f#X	e-	4d 4cc	.	8ff#X	.	.	.	.	.	.	.	.	.
.	.	.	.	.	.	.	.	.	.	.	8aaJ	.	.	.	.	.	.	.	.	.
=52	=52	=52	=52	=52	=52	=52	=52	=52	=52	=52	=52	=52	=52	=52	=52	=52	=52	=52	=52	=52
4G	.	.	4G	-lei-	4g	-lei-	4g	-lei-	4d 4b	.	4gg	.	2G	.	2g	.	4g	.	4gg	.
4G	.	.	4B	.	4b	.	4b	.	4d 4b	.	4bb	.	.	.	.	.	4b/	.	4bb	.
4G	.	.	2d	-son	2dd	-son	2dd	-son	4d 4b	.	2ddd	.	2r	.	2r	.	2dd	.	2ddd	.
4G	.	.	.	.	.	.	.	.	4d 4b	.	.	.	.	.	.	.	.	.	.	.
!LO:LB:g=original	!	!	!	!	!LO:LB:g=original	!	!	!	!	!	!	!	!	!	!	!	!	!	!	!
=53	=53	=53	=53	=53	=53	=53	=53	=53	=53	=53	=53	=53	=53	=53	=53	=53	=53	=53	=53	=53
4c	.	.	1r	.	1r	.	1r	.	4d 4cc	.	4eee	.	1r	.	1r	.	1r	.	1r	.
4c	.	.	.	.	.	.	.	.	4d 4cc	.	4ccc	.	.	.	.	.	.	.	.	.
4d	#	.	.	.	.	.	.	.	4d 4cc	.	4aa	.	.	.	.	.	.	.	.	.
4D	.	.	.	.	.	.	.	.	4d 4cc	.	4ff#X	.	.	.	.	.	.	.	.	.
!	!	!	!	!	!	!	!	!	!	!	!LO:LB:g=original	!	!	!	!	!	!	!	!	!
=54	=54	=54	=54	=54	=54	=54	=54	=54	=54	=54	=54	=54	=54	=54	=54	=54	=54	=54	=54	=54
4G	.	.	1r	.	1r	.	1r	.	4d 4b	.	4gg	.	2G	.	2g	.	4g	.	4gg	.
4G	.	.	.	.	.	.	.	.	4d 4dd	.	4bb	.	.	.	.	.	4b	.	4bb	.
4GG	.	.	.	.	.	.	.	.	4d 4b	.	2gg	.	2G	.	2g	.	2g	.	2gg	.
4G	.	.	.	.	.	.	.	.	4d 4b	.	.	.	.	.	.	.	.	.	.	.
!	!	!	!	!	!	!	!	!	!LO:LB:g=original	!	!	!	!LO:LB:g=original	!	!	!	!	!	!	!
=55	=55	=55	=55	=55	=55	=55	=55	=55	=55	=55	=55	=55	=55	=55	=55	=55	=55	=55	=55	=55
!LO:TX:a:t=Solo	!	!	!	!	!	!	!	!	!	!	!	!	!	!	!	!	!	!	!	!
*	*	*	*	*	*	*	*	*	*tremolo	*	*	*	*	*	*	*	*	*	*	*
4D	.	p	4F#X	Ky-	4f#X	Ky-	4f#X	Ky-	8dL 8cc	p	4ff#X	.	1r	.	1r	.	1r	.	1r	.
.	.	.	.	.	.	.	.	.	8d 8cc	.	.	.	.	.	.	.	.	.	.	.
4D	.	.	4A	-ri-	4a	-ri-	4a/	-ri-	8d 8cc	.	4aa	.	.	.	.	.	.	.	.	.
.	.	.	.	.	.	.	.	.	8dJ 8cc	.	.	.	.	.	.	.	.	.	.	.
4D	.	.	4F#	-e	4f#	-e	4f#	-e	8dL 8cc	.	4ff#	p	.	.	.	.	.	.	.	.
.	.	.	.	.	.	.	.	.	8d 8cc	.	.	.	.	.	.	.	.	.	.	.
4D	.	.	4D	e-	4d	e-	4d	e-	8d 8cc	.	4dd	.	.	.	.	.	.	.	.	.
.	.	.	.	.	.	.	.	.	8dJ 8cc	.	.	.	.	.	.	.	.	.	.	.
=56	=56	=56	=56	=56	=56	=56	=56	=56	=56	=56	=56	=56	=56	=56	=56	=56	=56	=56	=56	=56
4G	.	.	4G	-lei-	4g	-lei-	4g	-lei-	8dL 8b	.	4gg	.	1r	.	1r	.	4g	p	4gg	p
.	.	.	.	.	.	.	.	.	8d 8b	.	.	.	.	.	.	.	.	.	.	.
4G	.	.	4B	.	4b	.	4b	.	8d 8b	.	4bb	.	.	.	.	.	4b/	.	4bb	.
.	.	.	.	.	.	.	.	.	8dJ 8b	.	.	.	.	.	.	.	.	.	.	.
4B	.	.	2d	-son	2dd	-son	2dd	-son	8dL 8b	.	2ddd	.	.	.	.	.	2dd	.	2ddd	.
.	.	.	.	.	.	.	.	.	8d 8b	.	.	.	.	.	.	.	.	.	.	.
4B	.	.	.	.	.	.	.	.	8d 8b	.	.	.	.	.	.	.	.	.	.	.
.	.	.	.	.	.	.	.	.	8dJ 8b	.	.	.	.	.	.	.	.	.	.	.
!	!	!	!LO:LB:g=original	!	!	!	!	!	!	!	!	!	!	!	!	!	!	!	!	!
=57	=57	=57	=57	=57	=57	=57	=57	=57	=57	=57	=57	=57	=57	=57	=57	=57	=57	=57	=57	=57
4c	9	.	4d	Chri-	4dd	Chri-	(>4dd	Chri-	8dL 8a	.	4ddd	.	1r	.	1r	.	1r	.	1r	.
.	.	.	.	.	.	.	.	.	8d 8a	.	.	.	.	.	.	.	.	.	.	.
4c	8	.	4c	.	4cc	.	4cc)	.	8d 8a	.	4ccc;	.	.	.	.	.	.	.	.	.
.	.	.	.	.	.	.	.	.	8dJ 8a	.	.	.	.	.	.	.	.	.	.	.
4d	5	.	4A	-ste	4a	-ste	4b	-ste	8dL 8cc	.	(>4aa	.	.	.	.	.	.	.	.	.
.	.	.	.	.	.	.	.	.	8d 8cc	.	.	.	.	.	.	.	.	.	.	.
4D/	#	.	4F#X	e-	4f#X	e-	4f#X	e-	8d 8cc	.	4ff#X)	.	.	.	.	.	.	.	.	.
.	.	.	.	.	.	.	.	.	8dJ 8cc	.	.	.	.	.	.	.	.	.	.	.
*	*	*	*	*	*	*	*	*	*Xtremolo	*	*	*	*	*	*	*	*	*	*	*
!	!	!	!	!	!	!	!	!	!	!	!	!	!	!	!	!	!	!	!LO:LB:g=original	!
=58	=58	=58	=58	=58	=58	=58	=58	=58	=58	=58	=58	=58	=58	=58	=58	=58	=58	=58	=58	=58
4G'	.	.	4G	-lei-	(>4g	-lei-	4g	-lei-	4g	.	4gg	.	1r	.	1r	.	4g	.	4gg	.
4B'	.	.	4B	.	4b)	.	4b	.	4b/	.	4bb	.	.	.	.	.	4b/	.	4bb	.
2D`	.	.	2D/	-son	2d	-son	2d	-son	2d	.	2dd	.	.	.	.	.	2d	.	2dd	.
!	!	!	!	!	!	!	!LO:LB:g=original	!	!	!	!	!	!	!	!	!	!	!	!	!
=59	=59	=59	=59	=59	=59	=59	=59	=59	=59	=59	=59	=59	=59	=59	=59	=59	=59	=59	=59	=59
4D	.	.	1r	.	1r	.	1r	.	(<8f#XL	.	8ddL	.	1r	.	1r	.	1r	.	1r	.
.	.	.	.	.	.	.	.	.	8a)	.	8ff#XJ	.	.	.	.	.	.	.	.	.
4D	.	.	.	.	.	.	.	.	(<8f#	.	4cc 4aa	.	.	.	.	.	.	.	.	.
.	.	.	.	.	.	.	.	.	8aJ)	.	.	.	.	.	.	.	.	.	.	.
4D	.	.	.	.	.	.	.	.	(<8f#L	.	8ggL	.	.	.	.	.	.	.	.	.
.	.	.	.	.	.	.	.	.	8a)	.	8ff#	.	.	.	.	.	.	.	.	.
4D	.	.	.	.	.	.	.	.	(<8f#	.	8ee	.	.	.	.	.	.	.	.	.
.	.	.	.	.	.	.	.	.	8aJ)	.	8ddJ	.	.	.	.	.	.	.	.	.
!LO:LB:g=original	!	!	!	!	!	!	!	!	!	!	!	!	!	!	!	!	!	!	!	!
=60	=60	=60	=60	=60	=60	=60	=60	=60	=60	=60	=60	=60	=60	=60	=60	=60	=60	=60	=60	=60
4G	.	.	1r	.	1r	.	1r	.	8dL	.	8ggL	.	1r	.	1r	.	8gL	.	8ggL	.
.	.	.	.	.	.	.	.	.	8b	.	8ff#X	.	.	.	.	.	8f#X	.	8ff#X	.
4G	.	.	.	.	.	.	.	.	8d	.	8gg	.	.	.	.	.	8g	.	8gg	.
.	.	.	.	.	.	.	.	.	8bJ	.	8bbJ	.	.	.	.	.	8bJ	.	8bbJ	.
!	!	!	!	!	!	!	!	!	!	!	!	!	!	!	!	!	!LO:LB:g=original	!	!	!
4B	.	.	.	.	.	.	.	.	8dL	.	2ddd	.	.	.	.	.	2dd	.	2ddd	.
.	.	.	.	.	.	.	.	.	8b	.	.	.	.	.	.	.	.	.	.	.
4B	.	.	.	.	.	.	.	.	8d	.	.	.	.	.	.	.	.	.	.	.
.	.	.	.	.	.	.	.	.	8bJ	.	.	.	.	.	.	.	.	.	.	.
=61	=61	=61	=61	=61	=61	=61	=61	=61	=61	=61	=61	=61	=61	=61	=61	=61	=61	=61	=61	=61
4d	7	.	1r	.	1r	.	1r	.	4d 4a	.	8dddL	.	1r	.	1r	.	1r	.	4ddd	.
.	.	.	.	.	.	.	.	.	.	.	8ccc	.	.	.	.	.	.	.	.	.
4d	.	.	.	.	.	.	.	.	4d 4a	.	8bb	.	.	.	.	.	.	.	4ccc	.
.	.	.	.	.	.	.	.	.	.	.	8cccJ	.	.	.	.	.	.	.	.	.
4D/	#	.	.	.	.	.	.	.	4d 4cc	.	8aaL	.	.	.	.	.	.	.	4aa	.
.	.	.	.	.	.	.	.	.	.	.	8ccc	.	.	.	.	.	.	.	.	.
4D/	.	.	.	.	.	.	.	.	4d 4cc	.	8ff#X	.	.	.	.	.	.	.	4ff#X	.
.	.	.	.	.	.	.	.	.	.	.	8aaJ	.	.	.	.	.	.	.	.	.
!	!	!	!	!	!	!	!	!	!	!	!LO:LB:g=original	!	!	!	!	!	!	!	!	!
=62	=62	=62	=62	=62	=62	=62	=62	=62	=62	=62	=62	=62	=62	=62	=62	=62	=62	=62	=62	=62
4G	.	.	2r	.	4r	.	2r	.	4d 4b	.	2.gg	.	1r	.	1r	.	4g	.	2gg	.
4D/	#	.	.	.	2r	.	.	.	4d 4b	.	.	.	.	.	.	.	4b/	.	.	.
4GG	.	.	4r	.	.	.	4r	.	4d 4b	.	.	.	.	.	.	.	2g	.	2r	.
4C	.	.	4c	e-	4g	e-	4ee	e-	4e	.	4ee	f	.	.	.	.	.	.	.	.
!	!	!	!	!	!LO:LB:g=original	!	!	!	!LO:LB:g=original	!	!	!	!	!	!	!	!	!	!	!
=63	=63	=63	=63	=63	=63	=63	=63	=63	=63	=63	=63	=63	=63	=63	=63	=63	=63	=63	=63	=63
!LO:TX:a:t=Tutti	!	!	!	!	!	!	!	!	!	!	!	!	!	!	!	!	!	!	!	!
4G	.	.	4d	-lei-	2g	-lei-	(>4ffn	-lei-	(<4fn	f	4ffn	.	2g	f	4ff	f	1r	.	1r	.
4G	.	.	4B	.	.	.	4dd)	.	4d)	.	4dd	.	.	.	4dd	.	.	.	.	.
4G	.	.	4G	-son	4g	-son	4b	-son	4B	.	4b/	.	2g	.	2g	.	.	.	.	.
4G	.	.	4r	.	4r	.	4r	.	4G	.	4g	.	.	.	.	.	.	.	.	.
!	!	!	!	!	!	!	!	!	!	!	!	!	!	!	!LO:LB:g=original	!	!	!	!	!
=64	=64	=64	=64	=64	=64	=64	=64	=64	=64	=64	=64	=64	=64	=64	=64	=64	=64	=64	=64	=64
4c	.	.	2r	.	2r	.	2r	.	2.c	.	2.cc	.	2.c	.	2.cc	.	2r	.	2r	.
4G	.	.	.	.	.	.	.	.	.	.	.	.	.	.	.	.	.	.	.	.
4E	.	.	4r	.	4r	.	4r	.	.	.	.	.	.	.	.	.	4r	.	4r	.
!	!	!	!LO:LB:g=original	!	!	!	!	!	!	!	!	!	!	!	!	!	!	!	!	!
4C\	.	.	(>4c	Chri-	4g	e-	4ee	Chri-	4e	.	4ee	.	4c	.	4ee	.	4e	f	4ee	f
=65	=65	=65	=65	=65	=65	=65	=65	=65	=65	=65	=65	=65	=65	=65	=65	=65	=65	=65	=65	=65
4G	7_	.	)4d(	.	2g	-lei-	(>4ff	-ste-	4f	.	4ff	.	2g	.	4ff	.	4f	.	4ffn	.
4G	.	.	4B)	.	.	.	4dd)	.	4d	.	4dd	.	.	.	4dd	.	4d	.	4dd	.
4G	x	.	4G	-ste-	2g	-son	(>4b	-e-	4B	.	4b/	.	2g	.	2g	.	4B	.	4b/	.
4G	.	.	4G	-e-	.	.	4g/)	.	4G	.	4g	.	.	.	.	.	4g	.	4g	.
=66	=66	=66	=66	=66	=66	=66	=66	=66	=66	=66	=66	=66	=66	=66	=66	=66	=66	=66	=66	=66
4C`	.	.	(>4C	-lei-	4c	Ky-	(>4cc	-lei-	4c	.	4cc	.	4c	.	4cc	.	4c	.	4cc	.
4E`	.	.	4E)	.	4e	-ri-	4ee)	.	4e	.	4ee	.	4e	.	4ee	.	4e	.	4ee	.
4G`	.	.	4G	-son	4g	-e	4gg	-son	4g	.	4gg	.	4g	.	4gg	.	4g	.	4gg	.
4E`	.	.	4r	.	4r	.	4r	.	4e 4g	.	8ddL	.	4r	.	4r	.	4r	.	4r	.
.	.	.	.	.	.	.	.	.	.	.	8eeJ	.	.	.	.	.	.	.	.	.
!LO:LB:g=original	!	!	!	!	!	!	!	!	!	!	!	!	!	!	!	!	!	!	!LO:LB:g=original	!
=67	=67	=67	=67	=67	=67	=67	=67	=67	=67	=67	=67	=67	=67	=67	=67	=67	=67	=67	=67	=67
4F'	.	.	4F	Ky-	4dd	Ky-	4ff	Ky-	4f	.	8ffL	.	2g	.	4ff	.	1r	.	1r	.
.	.	.	.	.	.	.	.	.	.	.	8ee	.	.	.	.	.	.	.	.	.
4D'	.	.	4d	-ri-	4dd	-ri-	4dd	-ri-	4d	.	8ff	.	.	.	4dd	.	.	.	.	.
.	.	.	.	.	.	.	.	.	.	.	8ddJ	.	.	.	.	.	.	.	.	.
!	!	!	!	!	!	!	!LO:LB:g=original	!	!	!	!	!	!	!	!	!	!	!	!	!
4BB'	.	.	4B	-e	4b	-e	4b	-e	4B	.	8bL	.	2g	.	2g	.	.	.	.	.
.	.	.	.	.	.	.	.	.	.	.	8a	.	.	.	.	.	.	.	.	.
4GG'	.	.	4G	e-	4g	e-	4g	e-	4G	.	8b	.	.	.	.	.	.	.	.	.
.	.	.	.	.	.	.	.	.	.	.	8gJ	.	.	.	.	.	.	.	.	.
=68	=68	=68	=68	=68	=68	=68	=68	=68	=68	=68	=68	=68	=68	=68	=68	=68	=68	=68	=68	=68
!LO:TX:a:t=problem:znak zamazany	!	!	!	!	!	!	!	!	!	!	!	!	!	!	!	!	!	!	!	!
8qqc/	.	.	.	.	.	.	.	.	.	.	.	.	.	.	.	.	.	.	.	.
4c	.	.	4c	-lei-	4cc	-lei-	4cc	-lei-	4G 4e	p	2.cc	p	4e	.	4cc	.	1r	.	1r	.
8GL	.	.	4G	.	4ee	.	4ee	.	4G 4e	.	.	.	4r	.	4r	.	.	.	.	.
8EJ	.	.	.	.	.	.	.	.	.	.	.	.	.	.	.	.	.	.	.	.
4C	.	.	4C	-son	2cc	-son	4cc	-son	4G 4e	.	.	.	2r	.	2r	.	.	.	.	.
4r	.	.	4r	.	.	.	4r	.	4r	.	8ccL	.	.	.	.	.	.	.	.	.
.	.	.	.	.	.	.	.	.	.	.	8ddJ	.	.	.	.	.	.	.	.	.
!	!	!	!	!	!	!	!	!	!	!	!LO:LB:g=original	!	!	!	!	!	!	!	!	!
=69	=69	=69	=69	=69	=69	=69	=69	=69	=69	=69	=69	=69	=69	=69	=69	=69	=69	=69	=69	=69
!LO:TX:a:t=Solo	!	!	!	!	!	!	!	!	!	!	!	!	!	!	!	!	!	!	!	!
8CL/	.	.	4c	Ky-	4cc	Ky-	4ee	Ky-	4G 4g	.	4ee	.	1r	.	1r	.	1r	.	1r	.
8c\	.	p	.	.	.	.	.	.	.	.	.	.	.	.	.	.	.	.	.	.
8C/	.	.	4c	-ri-	4cc	-ri-	4ee	-ri-	2G 2g	.	2ff	.	.	.	.	.	.	.	.	.
8cJ\	.	.	.	.	.	.	.	.	.	.	.	.	.	.	.	.	.	.	.	.
!LO:TX:a:t=problem:połowa taktu powtórzona znakiem ÷	!	!	!	!	!	!	!	!	!LO:LB:g=original	!	!	!	!	!	!	!	!	!	!	!
8CL/	.	.	4c	-e	4cc	-e	4ee	-e	.	.	.	.	.	.	.	.	.	.	.	.
8c\	.	.	.	.	.	.	.	.	.	.	.	.	.	.	.	.	.	.	.	.
8C/	.	.	4C	e-	8ddL	e-	8ffL	e-	4G 4g	.	8ffL	.	.	.	.	.	.	.	.	.
8cJ\	.	.	.	.	8ccJ	.	8eeJ	.	.	.	8eeJ	.	.	.	.	.	.	.	.	.
!	!	!	!	!	!LO:LB:g=original	!	!	!	!	!	!	!	!	!	!	!	!	!	!	!
=70	=70	=70	=70	=70	=70	=70	=70	=70	=70	=70	=70	=70	=70	=70	=70	=70	=70	=70	=70	=70
8GGL/	.	.	2G	-lei-	(>4cc	-lei-	(>4ee	-lei-	(>4cc	.	(>4ee	.	1r	.	1r	.	1r	.	1r	.
8G\	.	.	.	.	.	.	.	.	.	.	.	.	.	.	.	.	.	.	.	.
8GG/	.	.	.	.	4b)	.	4dd)	.	4b)	.	4dd)	.	.	.	.	.	.	.	.	.
8GJ\	.	.	.	.	.	.	.	.	.	.	.	.	.	.	.	.	.	.	.	.
!LO:TX:a:t=problem:połowa taktu powtórzona znakiem ÷	!	!	!	!	!	!	!	!	!	!	!	!	!	!	!	!	!	!	!	!
8GGL/	.	.	4G	-son	4b	-son	4dd	-son	4b	.	4dd`	.	.	.	.	.	.	.	.	.
8G\	.	.	.	.	.	.	.	.	.	.	.	.	.	.	.	.	.	.	.	.
8GG/	.	.	4r	.	4r	.	4r	.	8bL	.	8ddL	.	.	.	.	.	.	.	.	.
8GJ\	.	.	.	.	.	.	.	.	8ccJ	.	8eeJ	.	.	.	.	.	.	.	.	.
=71	=71	=71	=71	=71	=71	=71	=71	=71	=71	=71	=71	=71	=71	=71	=71	=71	=71	=71	=71	=71
8GGL/	.	.	2G	Chri-	2dd	Chri-	2ff	Chri-	4dd	.	4ff	.	1r	.	1r	.	1r	.	1r	.
8G\	.	.	.	.	.	.	.	.	.	.	.	.	.	.	.	.	.	.	.	.
8GG/	.	.	.	.	.	.	.	.	2dd	.	2ff	.	.	.	.	.	.	.	.	.
8GJ\	.	.	.	.	.	.	.	.	.	.	.	.	.	.	.	.	.	.	.	.
!LO:TX:a:t=problem:połowa taktu powtórzona znakiem ÷	!	!	!	!	!	!	!	!	!	!	!	!	!	!	!	!	!	!	!	!
8GGL/	.	.	4B	-ste	4dd	-ste	4ff	-ste	.	.	.	.	.	.	.	.	.	.	.	.
8G\	.	.	.	.	.	.	.	.	.	.	.	.	.	.	.	.	.	.	.	.
8GG/	.	.	4B	e-	8eeL	e-	8ggL	e-	8eeL	.	8ggL	.	.	.	.	.	.	.	.	.
8GJ\	.	.	.	.	8ddJ	.	8ffJ	.	8ddJ	.	8ffJ	.	.	.	.	.	.	.	.	.
!	!	!	!	!	!	!	!	!	!LO:LB:g=original	!	!	!	!	!	!	!	!	!	!	!
=72	=72	=72	=72	=72	=72	=72	=72	=72	=72	=72	=72	=72	=72	=72	=72	=72	=72	=72	=72	=72
8CL/	4 2	.	4c	-lei-	(>4dd	-lei-	(>4ff	-lei-	4dd	.	(>4ff	.	1r	.	1r	.	1r	.	1r	.
8c\	.	.	.	.	.	.	.	.	.	.	.	.	.	.	.	.	.	.	.	.
8C/	3 5	.	4C	.	4cc)	.	4ee)	.	4cc	.	4ee)	.	.	.	.	.	.	.	.	.
8cJ\	.	.	.	.	.	.	.	.	.	.	.	.	.	.	.	.	.	.	.	.
4C	.	.	4C	-son	4cc	-son	4ee	-son	4cc	.	4ee`	.	.	.	.	.	.	.	.	.
4r	.	.	4r	.	4r	.	4r	.	8ccL	.	8eeL	.	.	.	.	.	.	.	.	.
.	.	.	.	.	.	.	.	.	8ddJ	.	8ffJ	.	.	.	.	.	.	.	.	.
!LO:LB:g=original	!	!	!	!	!	!	!LO:LB:g=original	!	!	!	!	!	!	!	!	!	!	!	!	!
=73	=73	=73	=73	=73	=73	=73	=73	=73	=73	=73	=73	=73	=73	=73	=73	=73	=73	=73	=73	=73
2c	.	.	1r	.	1r	.	1r	.	2cc 2ee	.	(>8ggL	.	1r	.	1r	.	1r	.	1r	.
.	.	.	.	.	.	.	.	.	.	.	8ee)	.	.	.	.	.	.	.	.	.
.	.	.	.	.	.	.	.	.	.	.	(>8aa	.	.	.	.	.	.	.	.	.
.	.	.	.	.	.	.	.	.	.	.	8ggJ)	.	.	.	.	.	.	.	.	.
8cL	3	.	.	.	.	.	.	.	(>8eeL	.	2gg	.	.	.	.	.	.	.	.	.
8B	3	.	.	.	.	.	.	.	8dd)	.	.	.	.	.	.	.	.	.	.	.
8d	3	.	.	.	.	.	.	.	(>8ff	.	.	.	.	.	.	.	.	.	.	.
8cJ	3	.	.	.	.	.	.	.	8eeJ)	.	.	.	.	.	.	.	.	.	.	.
=74	=74	=74	=74	=74	=74	=74	=74	=74	=74	=74	=74	=74	=74	=74	=74	=74	=74	=74	=74	=74
2c	3	.	1r	.	1r	.	1r	.	2cc 2ee	.	8ggL	.	1r	.	1r	.	1r	.	1r	.
.	.	.	.	.	.	.	.	.	.	.	8ee	.	.	.	.	.	.	.	.	.
.	.	.	.	.	.	.	.	.	.	.	8aa	.	.	.	.	.	.	.	.	.
.	.	.	.	.	.	.	.	.	.	.	8ggJ	.	.	.	.	.	.	.	.	.
!LO:TX:a:t=problem:niewyraźne b.c.	!	!	!	!	!	!	!	!	!	!	!	!	!	!	!	!	!	!	!	!
8cL	0	.	.	.	.	.	.	.	(>8eeL	.	2gg	.	.	.	.	.	.	.	.	.
8B	3	.	.	.	.	.	.	.	8cc)	.	.	.	.	.	.	.	.	.	.	.
8d	3	.	.	.	.	.	.	.	(>8ff	.	.	.	.	.	.	.	.	.	.	.
8cJ	3	.	.	.	.	.	.	.	8eeJ)	.	.	.	.	.	.	.	.	.	.	.
!	!	!	!	!	!	!	!	!	!	!	!LO:LB:g=original	!	!	!	!	!	!	!	!	!
=75	=75	=75	=75	=75	=75	=75	=75	=75	=75	=75	=75	=75	=75	=75	=75	=75	=75	=75	=75	=75
4c	.	.	4r	.	4r	.	4r	.	4ee	.	8ggL	.	1r	.	1r	.	1r	.	1r	.
.	.	.	.	.	.	.	.	.	.	.	8ee	.	.	.	.	.	.	.	.	.
4E	6	.	(>4E	e-	4cc	e-	4ee	e-	4G 4g	.	8ee	.	.	.	.	.	.	.	.	.
.	.	.	.	.	.	.	.	.	.	.	8ccJ	.	.	.	.	.	.	.	.	.
4F	6	.	4F	-lei-	4a	-lei-	8ffL	-lei-	4a	.	8ffL	.	.	.	.	.	.	.	.	.
.	.	.	.	.	.	.	8ddJ	.	.	.	8dd	.	.	.	.	.	.	.	.	.
4G	.	.	4G)	.	4d	.	8ddL	.	4G 4f	.	8dd	.	.	.	.	.	.	.	.	.
.	.	.	.	.	.	.	8bJ	.	.	.	8bJ	.	.	.	.	.	.	.	.	.
!	!	!	!LO:LB:g=original	!	!	!	!	!	!	!	!	!	!	!	!	!	!	!	!	!
=76	=76	=76	=76	=76	=76	=76	=76	=76	=76	=76	=76	=76	=76	=76	=76	=76	=76	=76	=76	=76
2C	.	.	2C	-son	2e	-son	2cc	-son	4e	.	8ccL	.	1r	.	1r	.	1r	.	1r	.
.	.	.	.	.	.	.	.	.	.	.	8b	.	.	.	.	.	.	.	.	.
.	.	.	.	.	.	.	.	.	4g	.	8cc	.	.	.	.	.	.	.	.	.
.	.	.	.	.	.	.	.	.	.	.	8ddJ	.	.	.	.	.	.	.	.	.
2r	.	.	2r	.	2r	.	2r	.	8ccL	.	8eeL	.	.	.	.	.	.	.	.	.
.	.	.	.	.	.	.	.	.	8b	.	8dd	.	.	.	.	.	.	.	.	.
.	.	.	.	.	.	.	.	.	8cc	.	8ee	.	.	.	.	.	.	.	.	.
.	.	.	.	.	.	.	.	.	8ddJ	.	8ffJ	.	.	.	.	.	.	.	.	.
=77	=77	=77	=77	=77	=77	=77	=77	=77	=77	=77	=77	=77	=77	=77	=77	=77	=77	=77	=77	=77
2c	3	.	1r	.	1r	.	1r	.	2cc 2ee	.	8ggL	.	1r	.	1r	.	1r	.	1r	.
.	.	.	.	.	.	.	.	.	.	.	8ee	.	.	.	.	.	.	.	.	.
.	.	.	.	.	.	.	.	.	.	.	8aa	.	.	.	.	.	.	.	.	.
.	.	.	.	.	.	.	.	.	.	.	8ggJ	.	.	.	.	.	.	.	.	.
8cL	0	.	.	.	.	.	.	.	(>8eeL	.	2gg	.	.	.	.	.	.	.	.	.
8B	3	.	.	.	.	.	.	.	8cc)	.	.	.	.	.	.	.	.	.	.	.
8d	3	.	.	.	.	.	.	.	(>8ff	.	.	.	.	.	.	.	.	.	.	.
8cJ	3	.	.	.	.	.	.	.	8eeJ)	.	.	.	.	.	.	.	.	.	.	.
=78	=78	=78	=78	=78	=78	=78	=78	=78	=78	=78	=78	=78	=78	=78	=78	=78	=78	=78	=78	=78
2c	.	.	1r	.	1r	.	1r	.	2cc 2ee	.	8ggL	.	1r	.	1r	.	1r	.	1r	.
.	.	.	.	.	.	.	.	.	.	.	8ee	.	.	.	.	.	.	.	.	.
.	.	.	.	.	.	.	.	.	.	.	8aa	.	.	.	.	.	.	.	.	.
.	.	.	.	.	.	.	.	.	.	.	8ggJ	.	.	.	.	.	.	.	.	.
8cL	3	.	.	.	.	.	.	.	(>8eeL	.	2gg	.	.	.	.	.	.	.	.	.
8B	3	.	.	.	.	.	.	.	8dd)	.	.	.	.	.	.	.	.	.	.	.
8d	0	.	.	.	.	.	.	.	(>8ff	.	.	.	.	.	.	.	.	.	.	.
8cJ	3	.	.	.	.	.	.	.	8eeJ)	.	.	.	.	.	.	.	.	.	.	.
!	!	!	!	!	!	!	!	!	!LO:LB:g=original	!	!	!	!	!	!	!	!	!	!	!
=79	=79	=79	=79	=79	=79	=79	=79	=79	=79	=79	=79	=79	=79	=79	=79	=79	=79	=79	=79	=79
4c	.	.	4r	.	4r	.	4r	.	4ee	.	8ggL	.	1r	.	1r	.	1r	.	1r	.
.	.	.	.	.	.	.	.	.	.	.	8ee	.	.	.	.	.	.	.	.	.
4E	6	.	4E	Chri-	4g	e-	4ee	e-	4G 4g	.	8ee	.	.	.	.	.	.	.	.	.
.	.	.	.	.	.	.	.	.	.	.	8ccJ	.	.	.	.	.	.	.	.	.
4F	6	.	4F	-ste	4a	-lei-	(>4ff	.	4a	.	8ffL	.	.	.	.	.	.	.	.	.
.	.	.	.	.	.	.	.	.	.	.	8dd	.	.	.	.	.	.	.	.	.
4G	.	.	4G	e-	4f	-son	4dd)	.	4G 4f	.	8dd	.	.	.	.	.	.	.	.	.
.	.	.	.	.	.	.	.	.	.	.	8bJ	.	.	.	.	.	.	.	.	.
!	!	!	!	!	!LO:LB:g=original	!	!	!	!	!	!LO:PB:g=original	!	!	!	!	!	!LO:LB:g=original	!	!	!
=80	=80	=80	=80	=80	=80	=80	=80	=80	=80	=80	=80	=80	=80	=80	=80	=80	=80	=80	=80	=80
4c	.	.	4c	-lei-	4c	Ky-	4cc	-lei-	4G 4e	p	2.cc	p	1r	.	1r	.	2r	.	2r	.
8GL	.	.	4G	.	4e	-ri-	4ee	.	4G 4e	.	.	.	.	.	.	.	.	.	.	.
8EJ	.	.	.	.	.	.	.	.	.	.	.	.	.	.	.	.	.	.	.	.
4C	.	.	4C	-son	4c	-e	4cc	-son	4G 4e	.	.	.	.	.	.	.	4r	.	4r	.
4r	.	.	4r	.	4r	.	4r	.	4r	.	8ccL	.	.	.	.	.	8ccL	p	8ccL	p
.	.	.	.	.	.	.	.	.	.	.	8ddJ	.	.	.	.	.	8bJ	.	8ddJ	.
!LO:LB:g=original	!	!	!	!	!	!	!	!	!	!	!	!	!	!	!	!	!	!	!	!
=81	=81	=81	=81	=81	=81	=81	=81	=81	=81	=81	=81	=81	=81	=81	=81	=81	=81	=81	=81	=81
!LO:TX:a:t=Solo	!	!	!	!	!	!	!	!	!	!	!	!	!	!	!	!	!	!	!	!
8CL/	.	p	4c	Ky-	4cc	Ky-	4ee	Ky-	4G 4g	.	4ee	.	1r	.	1r	.	4cc	.	4ee	.
8c\	.	.	.	.	.	.	.	.	.	.	.	.	.	.	.	.	.	.	.	.
8C/	.	.	4c	-ri-	4cc	-ri-	4ee	-ri-	2G 2g	.	2ee	.	.	.	.	.	2cc	.	2ee	.
8cJ\	.	.	.	.	.	.	.	.	.	.	.	.	.	.	.	.	.	.	.	.
!LO:TX:a:t=problem:połowa taktu powtórzona znakiem ÷	!	!	!	!	!	!	!	!	!	!	!	!	!	!	!	!	!	!	!	!
8CL/	.	.	4c	-e	4cc	-e	4ee	-e	.	.	.	.	.	.	.	.	.	.	.	.
8c\	.	.	.	.	.	.	.	.	.	.	.	.	.	.	.	.	.	.	.	.
8C/	.	.	4C	e-	8ddL	e-	8ffL	e-	4G 4g	.	8ffL	.	.	.	.	.	8ddL	.	8ffL	.
8cJ\	.	.	.	.	8ccJ	.	8eeJ	.	.	.	8eeJ	.	.	.	.	.	8ccJ	.	8eeJ	.
=82	=82	=82	=82	=82	=82	=82	=82	=82	=82	=82	=82	=82	=82	=82	=82	=82	=82	=82	=82	=82
8GGL/	.	.	2G	-lei-	(>4cc	-lei-	(>4ee	-lei-	(>4cc	.	(>4ee	.	1r	.	1r	.	(>4cc	.	(>4ee	.
8G\	.	.	.	.	.	.	.	.	.	.	.	.	.	.	.	.	.	.	.	.
8GG/	.	.	.	.	4b)	.	4dd)	.	4b)	.	4dd)	.	.	.	.	.	4b)	.	4dd)	.
8GJ\	.	.	.	.	.	.	.	.	.	.	.	.	.	.	.	.	.	.	.	.
!LO:TX:a:t=problem:połowa taktu powtórzona znakiem ÷	!	!	!	!	!	!	!	!	!	!	!	!	!	!	!	!	!	!	!	!
8GGL/	.	.	4G	-son	4b	-son	4dd	-son	4b	.	4dd	.	.	.	.	.	4b`	.	4dd`	.
8G\	.	.	.	.	.	.	.	.	.	.	.	.	.	.	.	.	.	.	.	.
8GG/	.	.	4r	.	4r	.	4r	.	8bL	.	8ddL	.	.	.	.	.	8bL	.	8ddL	.
8GJ\	.	.	.	.	.	.	.	.	8ccJ	.	8eeJ	.	.	.	.	.	8ccJ	.	8eeJ	.
!	!	!	!LO:PB:g=original	!	!	!	!LO:LB:g=original	!	!	!	!	!	!	!	!	!	!	!	!	!
=83	=83	=83	=83	=83	=83	=83	=83	=83	=83	=83	=83	=83	=83	=83	=83	=83	=83	=83	=83	=83
8GGL/	.	.	2G	Chri-	2dd	Chri-	2ff	Chri-	4dd	.	4ff	.	1r	.	1r	.	4dd	.	4ff	.
8G\	.	.	.	.	.	.	.	.	.	.	.	.	.	.	.	.	.	.	.	.
8GG/	.	.	.	.	.	.	.	.	2dd	.	2ff	.	.	.	.	.	2dd	.	2ff	.
8GJ\	.	.	.	.	.	.	.	.	.	.	.	.	.	.	.	.	.	.	.	.
!LO:TX:a:t=problem:połowa taktu powtórzona znakiem ÷	!	!	!	!	!	!	!	!	!	!	!	!	!	!	!	!	!	!	!	!
8GGL/	.	.	4B	-ste	4dd	-ste	4ff	-ste	.	.	.	.	.	.	.	.	.	.	.	.
8G\	.	.	.	.	.	.	.	.	.	.	.	.	.	.	.	.	.	.	.	.
8GG/	.	.	4B	e-	8eeL	e-	(>8ggL	e-	8eeL	.	8ggL	.	.	.	.	.	8eeL	.	8ggL	.
8GJ\	.	.	.	.	8ddJ	.	8ffJ)	.	8ddJ	.	8ffJ	.	.	.	.	.	8ddJ	.	8ffJ	.
=84	=84	=84	=84	=84	=84	=84	=84	=84	=84	=84	=84	=84	=84	=84	=84	=84	=84	=84	=84	=84
8CL/	4 2	.	4c	-lei-	4dd	-lei-	(>4ff	-lei-	4dd	.	(>4ff	.	1r	.	1r	.	(>4dd	.	(>4ff	.
8c\	.	.	.	.	.	.	.	.	.	.	.	.	.	.	.	.	.	.	.	.
8C/	3	.	4C	.	4cc	.	4ee)	.	4cc	.	4ee)	.	.	.	.	.	4cc)	.	4ee)	.
8cJ\	.	.	.	.	.	.	.	.	.	.	.	.	.	.	.	.	.	.	.	.
4C	.	.	4C	-son	4cc	-son	4ee	-son	4cc	.	4ee	.	.	.	.	.	4cc	.	4ee`	.
4r	.	.	4r	.	4r	.	4r	.	8ccL	.	8eeL	.	.	.	.	.	8ccL	.	8eeL	.
.	.	.	.	.	.	.	.	.	8ddJ	.	8ffJ	.	.	.	.	.	8ddJ	.	8ffJ	.
=85	=85	=85	=85	=85	=85	=85	=85	=85	=85	=85	=85	=85	=85	=85	=85	=85	=85	=85	=85	=85
2c	3	.	1r	.	1r	.	1r	.	2cc 2ee	.	(>8ggL	.	1r	.	1r	.	4ee	.	4gg	.
.	.	.	.	.	.	.	.	.	.	.	8ee)	.	.	.	.	.	.	.	.	.
.	.	.	.	.	.	.	.	.	.	.	(>8aa	.	.	.	.	.	4ff	.	4aa	.
.	.	.	.	.	.	.	.	.	.	.	8ggJ)	.	.	.	.	.	.	.	.	.
8cL	3	.	.	.	.	.	.	.	(>8eeL	.	2gg	.	.	.	.	.	2ee	.	2gg	.
8B	3	.	.	.	.	.	.	.	8dd)	.	.	.	.	.	.	.	.	.	.	.
8d	3	.	.	.	.	.	.	.	(>8ff	.	.	.	.	.	.	.	.	.	.	.
8cJ	3	.	.	.	.	.	.	.	8eeJ)	.	.	.	.	.	.	.	.	.	.	.
!	!	!	!	!	!	!	!	!	!	!	!LO:LB:g=original	!	!	!	!	!	!LO:LB:g=original	!	!LO:LB:g=original	!
=86	=86	=86	=86	=86	=86	=86	=86	=86	=86	=86	=86	=86	=86	=86	=86	=86	=86	=86	=86	=86
2c	0	.	1r	.	1r	.	1r	.	2cc 2ee	.	8ggL	.	1r	.	1r	.	8eeL	.	8ggL	.
.	.	.	.	.	.	.	.	.	.	.	8ee	.	.	.	.	.	8cc	.	8ee	.
.	.	.	.	.	.	.	.	.	.	.	8aa	.	.	.	.	.	8ff	.	8aa	.
.	.	.	.	.	.	.	.	.	.	.	8ggJ	.	.	.	.	.	8eeJ	.	8ggJ	.
8cL	0	.	.	.	.	.	.	.	(>8eeL	.	2gg	.	.	.	.	.	2ee	.	2gg	.
8B	3	.	.	.	.	.	.	.	8cc)	.	.	.	.	.	.	.	.	.	.	.
8d	3	.	.	.	.	.	.	.	(>8ff	.	.	.	.	.	.	.	.	.	.	.
8cJ	3	.	.	.	.	.	.	.	8eeJ)	.	.	.	.	.	.	.	.	.	.	.
!LO:PB:g=original	!	!	!	!	!	!	!	!	!LO:LB:g=original	!	!	!	!	!	!	!	!	!	!	!
=87	=87	=87	=87	=87	=87	=87	=87	=87	=87	=87	=87	=87	=87	=87	=87	=87	=87	=87	=87	=87
4c	.	.	4r	.	4r	.	4r	.	4ee	.	8ggL	.	1r	.	1r	.	1r	.	1r	.
.	.	.	.	.	.	.	.	.	.	.	8ee	.	.	.	.	.	.	.	.	.
4E	6	.	4E	e-	4cc	e-	4ee	e-	4G 4g	.	8ee	.	.	.	.	.	.	.	.	.
.	.	.	.	.	.	.	.	.	.	.	8ccJ	.	.	.	.	.	.	.	.	.
4F	6	.	(>4F	-lei-	4a	-lei-	8ffL	-lei-	4a	.	8ffL	.	.	.	.	.	.	.	.	.
.	.	.	.	.	.	.	8dd	.	.	.	8dd	.	.	.	.	.	.	.	.	.
4G	.	.	4G)	.	4d	.	8dd	.	4G 4f	.	8dd	.	.	.	.	.	.	.	.	.
.	.	.	.	.	.	.	8bJ	.	.	.	8bJ	.	.	.	.	.	.	.	.	.
!	!	!	!	!	!LO:LB:g=original	!	!	!	!	!	!	!	!	!	!	!	!	!	!	!
=88	=88	=88	=88	=88	=88	=88	=88	=88	=88	=88	=88	=88	=88	=88	=88	=88	=88	=88	=88	=88
2C	.	.	2C	-son	2e	-son	2cc	-son	4e	.	8ccL	.	1r	.	1r	.	1r	.	1r	.
.	.	.	.	.	.	.	.	.	.	.	8b	.	.	.	.	.	.	.	.	.
.	.	.	.	.	.	.	.	.	4g	.	8cc	.	.	.	.	.	.	.	.	.
.	.	.	.	.	.	.	.	.	.	.	8ddJ	.	.	.	.	.	.	.	.	.
2r	.	.	2r	.	2r	.	2r	.	8ccL	.	8eeL	.	.	.	.	.	.	.	.	.
.	.	.	.	.	.	.	.	.	8b	.	8dd	.	.	.	.	.	.	.	.	.
.	.	.	.	.	.	.	.	.	8cc	.	8ee	.	.	.	.	.	.	.	.	.
.	.	.	.	.	.	.	.	.	8ddJ	.	8ffJ	.	.	.	.	.	.	.	.	.
=89	=89	=89	=89	=89	=89	=89	=89	=89	=89	=89	=89	=89	=89	=89	=89	=89	=89	=89	=89	=89
2c	5 3	.	1r	.	1r	.	1r	.	2cc 2ee	.	8ggL	.	1r	.	1r	.	4ee	.	4gg	.
.	.	.	.	.	.	.	.	.	.	.	8ee	.	.	.	.	.	.	.	.	.
.	.	.	.	.	.	.	.	.	.	.	8aa	.	.	.	.	.	4ff	.	4aa	.
.	.	.	.	.	.	.	.	.	.	.	8ggJ	.	.	.	.	.	.	.	.	.
8cL	3	.	.	.	.	.	.	.	(>8eeL	.	2gg	.	.	.	.	.	2ee	.	2gg	.
8B	3	.	.	.	.	.	.	.	8cc)	.	.	.	.	.	.	.	.	.	.	.
8d	3	.	.	.	.	.	.	.	(>8ff	.	.	.	.	.	.	.	.	.	.	.
8cJ	3	.	.	.	.	.	.	.	8eeJ)	.	.	.	.	.	.	.	.	.	.	.
=90	=90	=90	=90	=90	=90	=90	=90	=90	=90	=90	=90	=90	=90	=90	=90	=90	=90	=90	=90	=90
2c	3	.	1r	.	1r	.	1r	.	2cc 2ee	.	8ggL	.	1r	.	1r	.	8eeL	.	8ggL	.
.	.	.	.	.	.	.	.	.	.	.	8ee	.	.	.	.	.	8cc	.	8ee	.
.	.	.	.	.	.	.	.	.	.	.	8aa	.	.	.	.	.	8ff	.	8aa	.
.	.	.	.	.	.	.	.	.	.	.	8ggJ	.	.	.	.	.	8eeJ	.	8ggJ	.
8cL	3	.	.	.	.	.	.	.	(>8eeL	.	2gg	.	.	.	.	.	2ee	.	2gg	.
8B	3	.	.	.	.	.	.	.	8dd)	.	.	.	.	.	.	.	.	.	.	.
8d	3	.	.	.	.	.	.	.	(>8ff	.	.	.	.	.	.	.	.	.	.	.
8cJ	3	.	.	.	.	.	.	.	8eeJ)	.	.	.	.	.	.	.	.	.	.	.
!	!	!	!	!	!	!	!	!	!	!	!LO:LB:g=original	!	!	!	!	!	!	!	!	!
=91	=91	=91	=91	=91	=91	=91	=91	=91	=91	=91	=91	=91	=91	=91	=91	=91	=91	=91	=91	=91
4c	.	.	4r	.	4r	.	4r	.	4ee	.	8ggL	.	1r	.	1r	.	1r	.	1r	.
.	.	.	.	.	.	.	.	.	.	.	8ee	.	.	.	.	.	.	.	.	.
4E	6	.	4E	e-	4g	e-	4ee	e-	4G 4g	.	8ee	.	.	.	.	.	.	.	.	.
.	.	.	.	.	.	.	.	.	.	.	8ccJ	.	.	.	.	.	.	.	.	.
4F	6	.	(>4F	-lei-	4a	-lei-	(>4ff	-lei-	4a	.	8ffL	.	.	.	.	.	.	.	.	.
.	.	.	.	.	.	.	.	.	.	.	8dd	.	.	.	.	.	.	.	.	.
4G	.	.	4G)	.	4f	.	4dd)	.	4G 4f	.	8dd	.	.	.	.	.	.	.	.	.
.	.	.	.	.	.	.	.	.	.	.	8bJ	.	.	.	.	.	.	.	.	.
!	!	!	!LO:LB:g=original	!	!	!	!	!	!	!	!	!	!	!	!	!	!	!	!	!
=92	=92	=92	=92	=92	=92	=92	=92	=92	=92	=92	=92	=92	=92	=92	=92	=92	=92	=92	=92	=92
!LO:TX:a:t=Tutti	!	!	!	!	!	!	!	!	!	!	!	!	!	!	!	!	!	!	!	!
2C	.	ff	2C	-son	2e	-son	2cc	-son	2c	.	2cc	f	2c	f	2cc	f	2cc	.	2cc	.
8E`L	.	.	2r	.	2r	.	2r	.	8eL	.	8eeL	.	4e	.	4ee	.	4ee	.	4ee	.
8C`	.	.	.	.	.	.	.	.	8c	.	8cc	.	.	.	.	.	.	.	.	.
8E`	.	.	.	.	.	.	.	.	8e	ff	8ee	ff	4c	.	4cc	.	4cc	.	4cc	.
8C`J	.	.	.	.	.	.	.	.	8cJ	.	8ccJ	.	.	.	.	.	.	.	.	.
!LO:LB:g=original	!	!	!	!	!	!	!LO:LB:g=original	!	!	!	!	!	!	!	!	!	!	!	!	!
=93	=93	=93	=93	=93	=93	=93	=93	=93	=93	=93	=93	=93	=93	=93	=93	=93	=93	=93	=93	=93
2G`	.	.	1r	.	1r	.	2ee	Chri-	2g	.	2gg	.	2g	.	2gg	.	2g	.	2gg	.
8B`L	.	.	.	.	.	.	4ff	.	8bL	.	8bbL	.	2g	.	2g	.	4b/	.	4bb	.
8G`	.	.	.	.	.	.	.	.	8g	.	8gg	.	.	.	.	.	.	.	.	.
8B`	.	.	.	.	.	.	4dd	-ste	8b	.	8bb	.	.	.	.	.	4g	.	4gg	.
8G`J	.	.	.	.	.	.	.	.	8gJ	.	8ggJ	.	.	.	.	.	.	.	.	.
!	!	!	!	!	!	!	!	!	!	!	!	!	!	!	!	!	!LO:LB:g=original	!	!	!
=94	=94	=94	=94	=94	=94	=94	=94	=94	=94	=94	=94	=94	=94	=94	=94	=94	=94	=94	=94	=94
4c	.	.	4r	.	2g	Chri-	2ee	e-	(>8ccL	.	2ccc	.	2c	.	2cc	.	2cc	.	2ccc	.
.	.	.	.	.	.	.	.	.	8ee	.	.	.	.	.	.	.	.	.	.	.
8CL/	.	.	8EL	e-	.	.	.	.	8gg	.	.	.	.	.	.	.	.	.	.	.
8EJ	.	.	8GJ	.	.	.	.	.	8eeJ)	.	.	.	.	.	.	.	.	.	.	.
4G	.	.	2G	-lei-	4g	-ste	4ff	-lei-	2dd 2ff	.	8bbL	.	2g	.	2g	.	4b/	.	4bb	.
.	.	.	.	.	.	.	.	.	.	.	8gg	.	.	.	.	.	.	.	.	.
4GG	.	.	.	.	4g	e-	4dd	-son	.	.	8gg	.	.	.	.	.	4g	.	4gg	.
.	.	.	.	.	.	.	.	.	.	.	8bbJ	.	.	.	.	.	.	.	.	.
!	!	!	!	!	!	!	!	!	!LO:PB:g=original	!	!	!	!	!	!	!	!	!	!LO:LB:g=original	!
=95	=95	=95	=95	=95	=95	=95	=95	=95	=95	=95	=95	=95	=95	=95	=95	=95	=95	=95	=95	=95
4C	.	.	4c	-son	2g	-lei-	2ee	e-	(>8eeL	.	2ccc	.	2c	.	2cc	.	2cc	.	2ccc	.
.	.	.	.	.	.	.	.	.	8gg)	.	.	.	.	.	.	.	.	.	.	.
8CL/	.	.	8CL/	e-	.	.	.	.	(>8ee	.	.	.	.	.	.	.	.	.	.	.
8EJ	.	.	8EJ	.	.	.	.	.	8ggJ)	.	.	.	.	.	.	.	.	.	.	.
4G	.	.	2G	-lei-	4g	-son	4ff	-lei-	2dd 2ff	.	8bbL	.	2G	.	2g	.	4b/	.	4bb	.
.	.	.	.	.	.	.	.	.	.	.	8gg	.	.	.	.	.	.	.	.	.
4GG	.	.	.	.	4g	e-	4dd	-son	.	.	8gg	.	.	.	.	.	4gg	.	8ggL	.
.	.	.	.	.	.	.	.	.	.	.	8bbJ	.	.	.	.	.	.	.	8bbJ	.
!	!	!	!	!	!	!	!	!	!	!	!LO:LB:g=original	!	!	!	!	!	!	!	!	!
=96	=96	=96	=96	=96	=96	=96	=96	=96	=96	=96	=96	=96	=96	=96	=96	=96	=96	=96	=96	=96
8CL	.	.	4c	-son	8cL	-lei-	4cc	e-	4cc 4ee	.	4ccc	.	1e	.	2cc	.	4ee	.	4ccc	.
8E	.	.	.	.	8eJ	.	.	.	.	.	.	.	.	.	.	.	.	.	.	.
8G	.	.	4c	e-	4g	.	4ee	.	4cc 4ee	.	4ccc	.	.	.	.	.	2ee	.	2ccc	.
8cJ	.	.	.	.	.	.	.	.	.	.	.	.	.	.	.	.	.	.	.	.
8GL	.	.	4G	-lei-	2g	.	2ee	-lei-	4cc 4ee	.	4ccc	.	.	.	4cc	.	.	.	.	.
8cJ	.	.	.	.	.	.	.	.	.	.	.	.	.	.	.	.	.	.	.	.
8EL	.	.	4E	.	.	.	.	.	4cc 4ee	.	4ccc	.	.	.	4cc	.	4ee	.	4ccc	.
8GJ	.	.	.	.	.	.	.	.	.	.	.	.	.	.	.	.	.	.	.	.
=97	=97	=97	=97	=97	=97	=97	=97	=97	=97	=97	=97	=97	=97	=97	=97	=97	=97	=97	=97	=97
2C	.	.	2C	-son.	2g	-son	2ee	-son.	2cc 2ee	.	2ccc	.	2e	.	2cc	.	2ee	.	2ccc	.
2r	.	.	2r	.	2r	.	2r	.	2r	.	2r	.	2r	.	2r	.	2r	.	2r	.
==	==	==	==	==	==	==	==	==	==	==	==	==	==	==	==	==	==	==	==	==
*-	*-	*-	*-	*-	*-	*-	*-	*-	*-	*-	*-	*-	*-	*-	*-	*-	*-	*-	*-	*-
!!!system-decoration: s1,s2,s3,s4,s5,s6,s7,s8,s9,s10
!!!RDF**kern: > = above
!!!RDF**kern: < = below
